;FLAVOR:Marlin
;TIME:12134
;Filament used: 8.09374m
;Layer height: 0.2
;MINX:49.338
;MINY:54.049
;MINZ:0.2
;MAXX:170.663
;MAXY:166.873
;MAXZ:21.8
;Generated with Cura_SteamEngine 4.8.0
M140 S75
M105
M190 S75
M104 S225
M105
M109 S225
M82 ;absolute extrusion mode
; Ender 3 Custom Start G-code
G92 E0 ; Reset Extruder
G28 ; Home all axes
G1 Z2.0 F3000 ; Move Z Axis up little to prevent scratching of Heat Bed
G1 X0.1 Y20 Z0.3 F5000.0 ; Move to start position
G1 X0.1 Y200.0 Z0.3 F1500.0 E15 ; Draw the first line
G1 X0.4 Y200.0 Z0.3 F5000.0 ; Move to side a little
G1 X0.4 Y20 Z0.3 F1500.0 E30 ; Draw the second line
G92 E0 ; Reset Extruder
G1 Z2.0 F3000 ; Move Z Axis up little to prevent scratching of Heat Bed
G1 X5 Y20 Z0.3 F5000.0 ; Move over to prevent blob squish
G92 E0
G92 E0
G1 F1500 E-6
;LAYER_COUNT:109
;LAYER:0
M107
M204 S500
M205 X8 Y8
G0 F7500 X53.083 Y57.74 Z0.2
;TYPE:SKIRT
G1 F1500 E0
G1 X54.102 Y56.851 E0.04273
G1 X54.484 Y56.557 E0.05796
G1 X55.298 Y55.987 E0.08936
G1 X56.11 Y55.517 E0.119
G1 X57.14 Y55.045 E0.1548
G1 X57.384 Y54.948 E0.1631
G1 X57.745 Y54.812 E0.17529
G1 X57.924 Y54.748 E0.18129
G1 X58.819 Y54.47 E0.21091
G1 X60.021 Y54.224 E0.24967
G1 X60.326 Y54.179 E0.25942
G1 X61.295 Y54.079 E0.2902
G1 X61.364 Y54.075 E0.29238
G1 X61.86 Y54.058 E0.30806
G1 X62.624 Y54.049 E0.3322
G1 X157.523 Y54.052 E3.33074
G1 X158.184 Y54.061 E3.35163
G1 X159.186 Y54.12 E3.38334
G1 X159.471 Y54.15 E3.3924
G1 X160.398 Y54.288 E3.42201
G1 X161.279 Y54.496 E3.45061
G1 X161.526 Y54.565 E3.45872
G1 X162.417 Y54.855 E3.48832
G1 X163.184 Y55.175 E3.51458
G1 X163.424 Y55.286 E3.52294
G1 X164.257 Y55.716 E3.55256
G1 X165.051 Y56.215 E3.58219
G1 X165.449 Y56.503 E3.59771
G1 X165.676 Y56.675 E3.60671
G1 X166.726 Y57.579 E3.65049
G1 X167.004 Y57.851 E3.66278
G1 X167.646 Y58.535 E3.69242
G1 X168.227 Y59.271 E3.72205
G1 X168.72 Y60.016 E3.75028
G1 X168.892 Y60.3 E3.76077
G1 X169.343 Y61.122 E3.79039
G1 X169.65 Y61.799 E3.81388
G1 X169.745 Y62.029 E3.82174
G1 X170.066 Y62.91 E3.85137
G1 X170.263 Y63.613 E3.87444
G1 X170.31 Y63.805 E3.88068
G1 X170.493 Y64.724 E3.91029
G1 X170.562 Y65.241 E3.92677
G1 X170.584 Y65.445 E3.93326
G1 X170.645 Y66.434 E3.96456
G1 X170.663 Y67.549 E3.9998
G1 X170.661 Y153.703 E6.72202
G1 X170.651 Y154.402 E6.74411
G1 X170.594 Y155.37 E6.77475
G1 X170.568 Y155.623 E6.78278
G1 X170.433 Y156.551 E6.81241
G1 X170.17 Y157.633 E6.8476
G1 X170.137 Y157.744 E6.85126
G1 X169.97 Y158.259 E6.86836
G1 X169.843 Y158.62 E6.88045
G1 X169.494 Y159.491 E6.9101
G1 X169.072 Y160.329 E6.93975
G1 X168.802 Y160.788 E6.95658
G1 X168.673 Y160.995 E6.96428
G1 X168.143 Y161.769 E6.99392
G1 X167.8 Y162.204 E7.01143
G1 X167.658 Y162.375 E7.01845
G1 X167.028 Y163.071 E7.04811
G1 X166.231 Y163.803 E7.0823
G1 X166.082 Y163.927 E7.08843
G1 X165.6 Y164.306 E7.1078
G1 X165.352 Y164.49 E7.11756
G1 X164.576 Y165.016 E7.14718
G1 X163.551 Y165.576 E7.18409
G1 X163.407 Y165.645 E7.18913
G1 X162.545 Y166.014 E7.21876
G1 X161.933 Y166.225 E7.23921
G1 X161.648 Y166.314 E7.24865
G1 X160.742 Y166.555 E7.27827
G1 X159.727 Y166.73 E7.31082
G1 X159.325 Y166.78 E7.32362
G1 X158.323 Y166.858 E7.35537
G1 X157.844 Y166.871 E7.37051
G1 X157.514 Y166.873 E7.38094
G1 X100.648 Y166.871 E9.17774
G1 X99.952 Y166.861 E9.19974
G1 X99.029 Y166.809 E9.22895
G1 X98.016 Y166.709 E9.26111
G1 X97.375 Y166.636 E9.28149
G1 X94.887 Y166.421 E9.3604
G1 X92.332 Y166.274 E9.44127
G1 X89.844 Y166.201 E9.51991
G1 X87.321 Y166.197 E9.59963
G1 X84.8 Y166.266 E9.67932
G1 X82.303 Y166.405 E9.75834
G1 X79.739 Y166.619 E9.83964
G1 X78.059 Y166.8 E9.89303
G1 X77.199 Y166.858 E9.92026
G1 X76.886 Y166.867 E9.93015
G1 X76.57 Y166.872 E9.94014
G1 X62.495 Y166.871 E10.38487
G1 X61.798 Y166.861 E10.4069
G1 X60.908 Y166.812 E10.43506
G1 X60.699 Y166.792 E10.44169
G1 X59.77 Y166.663 E10.47133
G1 X59.132 Y166.527 E10.49194
G1 X58.895 Y166.469 E10.49965
G1 X57.995 Y166.207 E10.52927
G1 X57.412 Y165.992 E10.5489
G1 X57.138 Y165.882 E10.55823
G1 X56.283 Y165.496 E10.58787
G1 X55.449 Y165.029 E10.61807
G1 X55.234 Y164.896 E10.62606
G1 X54.458 Y164.369 E10.6557
G1 X53.741 Y163.787 E10.68488
G1 X53.536 Y163.606 E10.69352
G1 X52.86 Y162.956 E10.72315
G1 X52.44 Y162.491 E10.74295
G1 X52.314 Y162.343 E10.74909
G1 X51.737 Y161.603 E10.77874
G1 X51.47 Y161.212 E10.7937
G1 X51.347 Y161.023 E10.80083
G1 X50.87 Y160.216 E10.83045
G1 X50.542 Y159.551 E10.85388
G1 X50.425 Y159.292 E10.86286
G1 X50.076 Y158.422 E10.89248
G1 X49.849 Y157.698 E10.91645
G1 X49.774 Y157.427 E10.92534
G1 X49.562 Y156.513 E10.95498
G1 X49.454 Y155.809 E10.97749
G1 X49.427 Y155.585 E10.98462
G1 X49.349 Y154.432 E11.02113
G1 X49.338 Y153.593 E11.04764
G1 X49.339 Y67.226 E13.77659
G1 X49.348 Y66.575 E13.79716
G1 X49.401 Y65.639 E13.82679
G1 X49.487 Y64.976 E13.84791
G1 X49.566 Y64.486 E13.86359
G1 X49.755 Y63.567 E13.89324
G1 X50.078 Y62.506 E13.92828
G1 X50.153 Y62.298 E13.93527
G1 X50.455 Y61.549 E13.96079
G1 X50.488 Y61.475 E13.96335
G1 X50.906 Y60.635 E13.99299
G1 X51.589 Y59.553 E14.03342
G1 X51.866 Y59.166 E14.04846
G1 X52.444 Y58.427 E14.0781
G1 X52.539 Y58.325 E14.08251
G0 F1350 X53.083 Y57.74
G0 F7500 X53.388 Y58.001
G1 F1500 X54.346 Y57.168 E14.12262
G1 X54.728 Y56.874 E14.13785
G1 X55.513 Y56.324 E14.16814
G1 X56.311 Y55.864 E14.19724
G1 X57.288 Y55.417 E14.23119
G1 X57.532 Y55.32 E14.23949
G1 X57.879 Y55.189 E14.25121
G1 X58.058 Y55.125 E14.25721
G1 X58.938 Y54.853 E14.28632
G1 X60.08 Y54.62 E14.32314
G1 X60.385 Y54.575 E14.33288
G1 X61.319 Y54.479 E14.36255
G1 X61.865 Y54.458 E14.37982
G1 X62.624 Y54.449 E14.4038
G1 X157.517 Y54.452 E17.40215
G1 X158.178 Y54.461 E17.42303
G1 X159.144 Y54.518 E17.45361
G1 X159.429 Y54.548 E17.46267
G1 X160.339 Y54.684 E17.49174
G1 X161.171 Y54.881 E17.51875
G1 X161.418 Y54.95 E17.52686
G1 X162.293 Y55.236 E17.55594
G1 X163.016 Y55.538 E17.5807
G1 X163.256 Y55.649 E17.58906
G1 X164.074 Y56.072 E17.61815
G1 X165.208 Y56.821 E17.6611
G1 X165.435 Y56.993 E17.67009
G1 X166.446 Y57.865 E17.71228
G1 X166.724 Y58.137 E17.72457
G1 X167.354 Y58.809 E17.75367
G1 X167.922 Y59.533 E17.78275
G1 X168.378 Y60.223 E17.80888
G1 X168.55 Y60.507 E17.81937
G1 X168.992 Y61.314 E17.84845
G1 X169.28 Y61.951 E17.87054
G1 X169.375 Y62.181 E17.8784
G1 X169.689 Y63.047 E17.90751
G1 X169.874 Y63.708 E17.92919
G1 X169.921 Y63.9 E17.93544
G1 X170.101 Y64.803 E17.96453
G1 X170.164 Y65.283 E17.97983
G1 X170.186 Y65.487 E17.98631
G1 X170.245 Y66.441 E18.01651
G1 X170.263 Y67.549 E18.05153
G1 X170.261 Y153.698 E20.77359
G1 X170.251 Y154.397 E20.79568
G1 X170.196 Y155.329 E20.82518
G1 X170.17 Y155.582 E20.83321
G1 X170.037 Y156.492 E20.86227
G1 X169.786 Y157.519 E20.89568
G1 X169.753 Y157.63 E20.89934
G1 X169.592 Y158.127 E20.91584
G1 X169.465 Y158.488 E20.92794
G1 X169.122 Y159.342 E20.95702
G1 X168.707 Y160.164 E20.98611
G1 X168.462 Y160.576 E21.00126
G1 X168.333 Y160.783 E21.00896
G1 X167.813 Y161.543 E21.03806
G1 X167.492 Y161.949 E21.05441
G1 X167.35 Y162.12 E21.06144
G1 X166.731 Y162.802 E21.09054
G1 X165.976 Y163.496 E21.12294
G1 X165.827 Y163.62 E21.12907
G1 X165.362 Y163.985 E21.14775
G1 X165.114 Y164.169 E21.1575
G1 X164.351 Y164.685 E21.18661
G1 X163.378 Y165.215 E21.22162
G1 X163.234 Y165.284 E21.22666
G1 X162.388 Y165.646 E21.25574
G1 X161.814 Y165.843 E21.27491
G1 X161.529 Y165.932 E21.28435
G1 X160.639 Y166.168 E21.31344
G1 X159.677 Y166.333 E21.34428
G1 X159.275 Y166.383 E21.35708
G1 X158.31 Y166.458 E21.38766
G1 X157.84 Y166.471 E21.40252
G1 X157.514 Y166.473 E21.41282
G1 X100.654 Y166.471 E23.20943
G1 X99.958 Y166.461 E23.23143
G1 X99.069 Y166.411 E23.25956
G1 X98.056 Y166.311 E23.29172
G1 X97.422 Y166.239 E23.31189
G1 X94.873 Y166.019 E23.39273
G1 X92.367 Y165.875 E23.47204
G1 X89.857 Y165.801 E23.55138
G1 X87.31 Y165.797 E23.63186
G1 X84.803 Y165.865 E23.7111
G1 X82.246 Y166.008 E23.79202
G1 X79.706 Y166.22 E23.87256
G1 X78.016 Y166.402 E23.92627
G1 X77.188 Y166.459 E23.95249
G1 X76.875 Y166.468 E23.96239
G1 X76.57 Y166.472 E23.97202
G1 X62.501 Y166.471 E24.41656
G1 X61.804 Y166.461 E24.43859
G1 X60.946 Y166.414 E24.46574
G1 X60.737 Y166.394 E24.47237
G1 X59.825 Y166.266 E24.50147
G1 X59.227 Y166.138 E24.5208
G1 X58.99 Y166.08 E24.52851
G1 X58.106 Y165.823 E24.55759
G1 X57.561 Y165.621 E24.57596
G1 X57.287 Y165.511 E24.58529
G1 X56.448 Y165.131 E24.61439
G1 X55.66 Y164.689 E24.64294
G1 X55.445 Y164.556 E24.65093
G1 X54.683 Y164.038 E24.68004
G1 X54.005 Y163.487 E24.70765
G1 X53.8 Y163.306 E24.71629
G1 X53.137 Y162.667 E24.74538
G1 X52.745 Y162.231 E24.76391
G1 X52.619 Y162.083 E24.77005
G1 X51.806 Y160.994 E24.81299
G1 X51.683 Y160.805 E24.82011
G1 X51.215 Y160.012 E24.84921
G1 X50.907 Y159.387 E24.87122
G1 X50.79 Y159.128 E24.8802
G1 X50.448 Y158.273 E24.9093
G1 X50.234 Y157.591 E24.93189
G1 X50.159 Y157.32 E24.94077
G1 X49.952 Y156.423 E24.96986
G1 X49.851 Y155.761 E24.99102
G1 X49.824 Y155.537 E24.99815
G1 X49.749 Y154.426 E25.03333
G1 X49.738 Y153.593 E25.05965
G1 X49.739 Y67.231 E27.78845
G1 X49.748 Y66.58 E27.80902
G1 X49.801 Y65.661 E27.8381
G1 X49.882 Y65.04 E27.85789
G1 X49.961 Y64.55 E27.87357
G1 X50.147 Y63.648 E27.90267
G1 X50.454 Y62.641 E27.93594
G1 X50.529 Y62.433 E27.94292
G1 X50.82 Y61.712 E27.96749
G1 X50.853 Y61.638 E27.97005
G1 X51.264 Y60.814 E27.99915
G1 X51.914 Y59.785 E28.0376
G1 X52.191 Y59.398 E28.05264
G1 X52.759 Y58.674 E28.08172
G1 X52.842 Y58.585 E28.08556
G0 F1350 X53.388 Y58.001
G0 F7500 X53.693 Y58.263
G1 F1500 X54.59 Y57.485 E28.12308
G1 X54.972 Y57.191 E28.13831
G1 X55.728 Y56.662 E28.16747
G1 X56.511 Y56.211 E28.19602
G1 X57.436 Y55.789 E28.22814
G1 X57.68 Y55.692 E28.23644
G1 X58.014 Y55.565 E28.24773
G1 X58.193 Y55.501 E28.25374
G1 X59.056 Y55.235 E28.28227
G1 X60.138 Y55.015 E28.31716
G1 X60.443 Y54.97 E28.3269
G1 X61.342 Y54.878 E28.35545
G1 X61.87 Y54.858 E28.37215
G1 X62.624 Y54.849 E28.39598
G1 X157.512 Y54.852 E31.39416
G1 X158.173 Y54.861 E31.41505
G1 X159.102 Y54.916 E31.44446
G1 X159.387 Y54.946 E31.45351
G1 X160.28 Y55.08 E31.48204
G1 X161.063 Y55.266 E31.50747
G1 X161.31 Y55.335 E31.51558
G1 X162.169 Y55.616 E31.54413
G1 X162.848 Y55.901 E31.5674
G1 X163.088 Y56.012 E31.57576
G1 X163.89 Y56.427 E31.60429
G1 X164.966 Y57.14 E31.64507
G1 X165.193 Y57.312 E31.65407
G1 X166.166 Y58.151 E31.69467
G1 X166.444 Y58.423 E31.70696
G1 X167.061 Y59.083 E31.7355
G1 X167.617 Y59.794 E31.76402
G1 X168.036 Y60.43 E31.78809
G1 X168.208 Y60.714 E31.79858
G1 X168.641 Y61.506 E31.8271
G1 X168.91 Y62.104 E31.84782
G1 X169.005 Y62.334 E31.85568
G1 X169.313 Y63.183 E31.88422
G1 X169.485 Y63.803 E31.90455
G1 X169.532 Y63.995 E31.91079
G1 X169.766 Y65.326 E31.9535
G1 X169.788 Y65.53 E31.95998
G1 X169.845 Y66.448 E31.98904
G1 X169.863 Y67.549 E32.02383
G1 X169.861 Y153.692 E34.7457
G1 X169.851 Y154.391 E34.76779
G1 X169.799 Y155.288 E34.79618
G1 X169.773 Y155.541 E34.80422
G1 X169.641 Y156.434 E34.83274
G1 X169.403 Y157.405 E34.86433
G1 X169.37 Y157.516 E34.86799
G1 X169.215 Y157.994 E34.88387
G1 X169.088 Y158.355 E34.89596
G1 X168.751 Y159.193 E34.9245
G1 X168.123 Y160.365 E34.96651
G1 X167.994 Y160.572 E34.97422
G1 X167.483 Y161.316 E35.00274
G1 X167.184 Y161.693 E35.01794
G1 X167.042 Y161.864 E35.02497
G1 X166.435 Y162.533 E35.05351
G1 X165.72 Y163.188 E35.08415
G1 X165.571 Y163.312 E35.09027
G1 X165.124 Y163.664 E35.10825
G1 X164.876 Y163.848 E35.11801
G1 X164.127 Y164.353 E35.14655
G1 X163.206 Y164.855 E35.17969
G1 X163.062 Y164.924 E35.18474
G1 X162.231 Y165.277 E35.21327
G1 X161.694 Y165.461 E35.2312
G1 X161.409 Y165.55 E35.24064
G1 X160.536 Y165.781 E35.26917
G1 X159.628 Y165.936 E35.29827
G1 X159.226 Y165.986 E35.31107
G1 X158.297 Y166.059 E35.34052
G1 X157.837 Y166.071 E35.35506
G1 X157.514 Y166.073 E35.36526
G1 X100.659 Y166.071 E37.16172
G1 X99.963 Y166.061 E37.18371
G1 X99.108 Y166.013 E37.21077
G1 X97.928 Y165.895 E37.24824
G1 X97.432 Y165.838 E37.26402
G1 X94.933 Y165.622 E37.34327
G1 X92.401 Y165.476 E37.42341
G1 X89.834 Y165.401 E37.50455
G1 X87.301 Y165.397 E37.58459
G1 X84.767 Y165.466 E37.66469
G1 X82.228 Y165.607 E37.74504
G1 X79.712 Y165.818 E37.82481
G1 X77.973 Y166.005 E37.88008
G1 X77.176 Y166.059 E37.90532
G1 X76.863 Y166.068 E37.91521
G1 X76.57 Y166.072 E37.92447
G1 X62.507 Y166.071 E38.36882
G1 X61.81 Y166.061 E38.39085
G1 X60.984 Y166.016 E38.41698
G1 X60.775 Y165.996 E38.42362
G1 X59.881 Y165.87 E38.45215
G1 X59.322 Y165.75 E38.47021
G1 X59.085 Y165.692 E38.47792
G1 X58.218 Y165.438 E38.50647
G1 X57.71 Y165.25 E38.52358
G1 X57.436 Y165.14 E38.53291
G1 X56.614 Y164.766 E38.56145
G1 X55.87 Y164.348 E38.58841
G1 X55.655 Y164.215 E38.5964
G1 X54.909 Y163.707 E38.62492
G1 X54.27 Y163.187 E38.65095
G1 X54.065 Y163.006 E38.65959
G1 X53.415 Y162.379 E38.68812
G1 X53.049 Y161.972 E38.70542
G1 X52.923 Y161.824 E38.71156
G1 X52.141 Y160.776 E38.75288
G1 X52.018 Y160.587 E38.76
G1 X51.559 Y159.809 E38.78854
G1 X51.271 Y159.222 E38.8092
G1 X51.154 Y158.963 E38.81818
G1 X50.819 Y158.124 E38.84673
G1 X50.62 Y157.485 E38.86788
G1 X50.545 Y157.214 E38.87676
G1 X50.342 Y156.333 E38.90533
G1 X50.248 Y155.714 E38.92511
G1 X50.221 Y155.49 E38.93224
G1 X50.149 Y154.42 E38.96612
G1 X50.138 Y153.593 E38.99226
G1 X50.139 Y67.237 E41.72086
G1 X50.148 Y66.586 E41.74143
G1 X50.2 Y65.684 E41.76998
G1 X50.277 Y65.103 E41.7885
G1 X50.356 Y64.613 E41.80418
G1 X50.539 Y63.729 E41.8327
G1 X50.831 Y62.777 E41.86417
G1 X50.906 Y62.569 E41.87115
G1 X51.185 Y61.875 E41.89479
G1 X51.218 Y61.801 E41.89735
G1 X51.622 Y60.993 E41.92589
G1 X52.24 Y60.018 E41.96237
G1 X52.517 Y59.631 E41.9774
G1 X53.074 Y58.921 E42.00592
G1 X53.145 Y58.845 E42.0092
G0 F1350 X53.693 Y58.263
G1 F1500 E36.0092
;MESH:DIPLAY_COVER_stockscrews.stl
G0 F7500 X65.365 Y84.07
G0 X64.219 Y82.611
G0 X63.566 Y83.525
;TYPE:WALL-INNER
G1 F1500 E42.0092
G1 X63.553 Y83.539 E42.00981
G1 X63.327 Y83.85 E42.02195
G1 X63.146 Y84.133 E42.03257
G1 X62.967 Y84.481 E42.04493
G1 X62.963 Y84.492 E42.0453
G1 X62.837 Y84.777 E42.05515
G1 X62.726 Y85.087 E42.06555
G1 X62.637 Y85.403 E42.07593
G1 X62.635 Y85.415 E42.07631
G1 X62.566 Y85.734 E42.08662
G1 X62.522 Y86.054 E42.09683
G1 X62.519 Y86.069 E42.09731
G1 X62.519 Y86.082 E42.09772
G1 X62.496 Y86.406 E42.10799
G1 X62.496 Y86.741 E42.11857
G1 X62.518 Y87.081 E42.12934
G1 X62.567 Y87.43 E42.14047
G1 X62.639 Y87.766 E42.15133
G1 X62.737 Y88.104 E42.16245
G1 X62.858 Y88.433 E42.17353
G1 X63.003 Y88.754 E42.18466
G1 X63.175 Y89.068 E42.19597
G1 X63.369 Y89.369 E42.20728
G1 X63.588 Y89.658 E42.21874
G1 X63.828 Y89.933 E42.23027
G1 X64.088 Y90.185 E42.24172
G1 X64.365 Y90.419 E42.25317
G1 X64.66 Y90.629 E42.26461
G1 X64.94 Y90.804 E42.27505
G1 X65.264 Y90.971 E42.28656
G1 X65.568 Y91.101 E42.29701
G1 X65.873 Y91.208 E42.30722
G1 X66.176 Y91.292 E42.31716
G1 X66.191 Y91.297 E42.31766
G1 X66.553 Y91.368 E42.32932
G1 X66.875 Y91.407 E42.33956
G1 X67.16 Y91.426 E42.34859
G1 X67.489 Y91.424 E42.35898
G1 X67.811 Y91.399 E42.36919
G1 X68.134 Y91.354 E42.37949
G1 X68.454 Y91.284 E42.38984
G1 X68.762 Y91.196 E42.39997
G1 X69.074 Y91.087 E42.41041
G1 X69.375 Y90.953 E42.42082
G1 X69.666 Y90.801 E42.43119
G1 X69.977 Y90.606 E42.44279
G1 X70.268 Y90.391 E42.45422
G1 X70.543 Y90.157 E42.46563
G1 X70.803 Y89.899 E42.47721
G1 X71.039 Y89.626 E42.48861
G1 X71.253 Y89.338 E42.49995
G1 X71.446 Y89.032 E42.51138
G1 X71.614 Y88.719 E42.5226
G1 X71.758 Y88.394 E42.53383
G1 X71.875 Y88.064 E42.5449
G1 X71.969 Y87.731 E42.55583
G1 X72.04 Y87.395 E42.56668
G1 X72.086 Y87.047 E42.57777
G1 X72.106 Y86.672 E42.58964
G1 X72.102 Y86.332 E42.60038
G1 X72.072 Y85.997 E42.61101
G1 X72.022 Y85.67 E42.62146
G1 X71.947 Y85.335 E42.63231
G1 X71.852 Y85.022 E42.64264
G1 X71.739 Y84.716 E42.65295
G1 X71.605 Y84.42 E42.66322
G1 X71.444 Y84.119 E42.674
G1 X71.24 Y83.804 E42.68586
G1 X71.043 Y83.532 E42.69647
G1 X70.793 Y83.247 E42.70845
G1 X70.559 Y83.011 E42.71895
G1 X70.27 Y82.765 E42.73094
G1 X69.961 Y82.541 E42.743
G1 X69.644 Y82.345 E42.75478
G1 X69.302 Y82.17 E42.76692
G1 X69.288 Y82.165 E42.76739
G1 X68.947 Y82.022 E42.77907
G1 X68.584 Y81.905 E42.79112
G1 X68.217 Y81.819 E42.80303
G1 X67.842 Y81.76 E42.81503
G1 X67.472 Y81.733 E42.82675
G1 X67.136 Y81.732 E42.83737
G1 X66.771 Y81.759 E42.84893
