;FLAVOR:Marlin
;TIME:1927
;Filament used: 0.894101m
;Layer height: 0.2
;MINX:83.75
;MINY:90.6
;MINZ:0.2
;MAXX:136.25
;MAXY:129.4
;MAXZ:10
;Generated with Cura_SteamEngine 4.8.0
M140 S75
M105
M190 S75
M104 S225
M105
M109 S225
M82 ;absolute extrusion mode
; Ender 3 Custom Start G-code
G92 E0 ; Reset Extruder
G28 ; Home all axes
G1 Z2.0 F3000 ; Move Z Axis up little to prevent scratching of Heat Bed
G1 X0.1 Y20 Z0.3 F5000.0 ; Move to start position
G1 X0.1 Y200.0 Z0.3 F1500.0 E15 ; Draw the first line
G1 X0.4 Y200.0 Z0.3 F5000.0 ; Move to side a little
G1 X0.4 Y20 Z0.3 F1500.0 E30 ; Draw the second line
G92 E0 ; Reset Extruder
G1 Z2.0 F3000 ; Move Z Axis up little to prevent scratching of Heat Bed
G1 X5 Y20 Z0.3 F5000.0 ; Move over to prevent blob squish
G92 E0
G92 E0
G1 F1500 E-6
;LAYER_COUNT:50
;LAYER:0
M107
M204 S500
M205 X8 Y8
G0 F7500 X90.05 Y93.703 Z0.2
;TYPE:SKIRT
G1 F1500 E0
G1 X90.751 Y93.08 E0.02963
G1 X91.503 Y92.52 E0.05926
G1 X92.3 Y92.025 E0.0889
G1 X93.136 Y91.6 E0.11854
G1 X94.005 Y91.248 E0.14816
G1 X94.901 Y90.971 E0.17779
G1 X95.818 Y90.772 E0.20744
G1 X96.748 Y90.651 E0.23708
G1 X97.326 Y90.616 E0.25537
G1 X97.711 Y90.606 E0.26754
G1 X98.254 Y90.6 E0.2847
G1 X103.327 Y90.6 E0.44499
G1 X104.677 Y90.618 E0.48765
G1 X107.261 Y90.618 E0.5693
G1 X108.854 Y90.6 E0.61964
G1 X114.084 Y90.601 E0.78489
G1 X115.277 Y90.618 E0.82259
G1 X117.861 Y90.618 E0.90424
G1 X119.454 Y90.6 E0.95457
G1 X124.701 Y90.601 E1.12036
G1 X125.399 Y90.611 E1.14242
G1 X126.335 Y90.665 E1.17204
G1 X127.263 Y90.797 E1.20166
G1 X128.177 Y91.009 E1.23131
G1 X129.069 Y91.298 E1.26093
G1 X129.934 Y91.661 E1.29058
G1 X130.764 Y92.097 E1.3202
G1 X131.555 Y92.602 E1.34985
G1 X132.299 Y93.173 E1.37949
G1 X132.992 Y93.805 E1.40912
G1 X133.629 Y94.493 E1.43875
G1 X134.204 Y95.234 E1.46838
G1 X134.715 Y96.02 E1.498
G1 X135.157 Y96.848 E1.52766
G1 X135.526 Y97.71 E1.55729
G1 X135.821 Y98.6 E1.58691
G1 X136.039 Y99.512 E1.61654
G1 X136.179 Y100.44 E1.6462
G1 X136.237 Y101.301 E1.67346
G1 X136.246 Y101.621 E1.68358
G1 X136.25 Y101.93 E1.69334
G1 X136.249 Y102.387 E1.70778
G1 X136.239 Y103.109 E1.7306
G1 X136.223 Y103.575 E1.74533
G1 X136.075 Y106.213 E1.82882
G1 X136.003 Y108.747 E1.90892
G1 X136.003 Y111.235 E1.98753
G1 X136.076 Y113.818 E2.06918
G1 X136.174 Y115.667 E2.12768
G1 X136.217 Y116.334 E2.1488
G1 X136.233 Y116.647 E2.1587
G1 X136.244 Y117.067 E2.17198
G1 X136.249 Y117.55 E2.18724
G1 X136.249 Y117.815 E2.19561
G1 X136.239 Y118.542 E2.21859
G1 X136.186 Y119.479 E2.24824
G1 X136.054 Y120.407 E2.27786
G1 X135.843 Y121.321 E2.3075
G1 X135.554 Y122.213 E2.33713
G1 X135.191 Y123.078 E2.36677
G1 X134.756 Y123.909 E2.3964
G1 X134.251 Y124.699 E2.42603
G1 X133.681 Y125.444 E2.45567
G1 X133.05 Y126.138 E2.48531
G1 X132.361 Y126.775 E2.51496
G1 X131.621 Y127.351 E2.54459
G1 X130.835 Y127.862 E2.57421
G1 X130.008 Y128.304 E2.60384
G1 X129.146 Y128.674 E2.63348
G1 X128.256 Y128.969 E2.6631
G1 X127.344 Y129.188 E2.69274
G1 X126.417 Y129.328 E2.72236
G1 X125.549 Y129.387 E2.74985
G1 X125.229 Y129.396 E2.75997
G1 X124.92 Y129.4 E2.76973
G1 X119.469 Y129.399 E2.94197
G1 X118.144 Y129.38 E2.98384
G1 X115.5 Y129.38 E3.06738
G1 X114.661 Y129.398 E3.0939
G1 X114.433 Y129.4 E3.1011
G1 X108.869 Y129.399 E3.27691
G1 X107.544 Y129.38 E3.31878
G1 X104.9 Y129.38 E3.40232
G1 X104.061 Y129.398 E3.42884
G1 X103.833 Y129.4 E3.43604
G1 X98.242 Y129.399 E3.6127
G1 X97.541 Y129.389 E3.63485
G1 X96.605 Y129.336 E3.66447
G1 X95.676 Y129.203 E3.69413
G1 X94.763 Y128.991 E3.72374
G1 X93.87 Y128.703 E3.75339
G1 X93.006 Y128.339 E3.78301
G1 X92.175 Y127.903 E3.81267
G1 X91.385 Y127.398 E3.84229
G1 X90.641 Y126.828 E3.87191
G1 X90.244 Y126.479 E3.88861
G1 X90.091 Y126.338 E3.89518
G1 X89.848 Y126.107 E3.90578
G1 X89.572 Y125.836 E3.918
G1 X87.332 Y123.594 E4.01814
G1 X86.861 Y123.108 E4.03952
G1 X86.237 Y122.408 E4.06915
G1 X85.676 Y121.656 E4.0988
G1 X85.181 Y120.86 E4.12841
G1 X84.755 Y120.024 E4.15806
G1 X84.402 Y119.155 E4.1877
G1 X84.124 Y118.26 E4.21731
G1 X83.924 Y117.343 E4.24697
G1 X83.802 Y116.414 E4.27657
G1 X83.766 Y115.824 E4.29525
G1 X83.756 Y115.432 E4.30764
G1 X83.75 Y114.871 E4.32537
G1 X83.751 Y105.092 E4.63435
G1 X83.761 Y104.39 E4.65654
G1 X83.814 Y103.454 E4.68616
G1 X83.947 Y102.526 E4.71578
G1 X84.159 Y101.612 E4.74543
G1 X84.447 Y100.719 E4.77507
G1 X84.811 Y99.855 E4.8047
G1 X85.247 Y99.024 E4.83435
G1 X85.752 Y98.234 E4.86398
G1 X86.322 Y97.49 E4.89359
G1 X86.695 Y97.066 E4.91143
G1 X86.836 Y96.914 E4.91799
G1 X87.038 Y96.702 E4.92724
G1 X87.302 Y96.434 E4.93912
G1 X89.476 Y94.26 E5.03627
G0 F1350 X89.563 Y94.174
G0 X90.05 Y93.703
G0 F7500 X90.328 Y93.991
G1 F1500 X91.017 Y93.38 E5.06537
G1 X91.756 Y92.831 E5.09446
G1 X92.54 Y92.349 E5.12354
G1 X93.363 Y91.936 E5.15263
G1 X94.219 Y91.597 E5.18172
G1 X95.101 Y91.333 E5.21081
G1 X96.003 Y91.146 E5.23992
G1 X97.339 Y91.016 E5.28233
G1 X97.715 Y91.006 E5.29422
G1 X98.254 Y91 E5.31125
G1 X103.327 Y91 E5.47154
G1 X104.671 Y91.018 E5.51401
G1 X107.272 Y91.018 E5.59619
G1 X108.854 Y91 E5.64618
G1 X114.078 Y91.001 E5.81125
G1 X115.271 Y91.018 E5.84895
G1 X117.872 Y91.018 E5.93113
G1 X119.454 Y91 E5.98112
G1 X124.695 Y91.001 E6.14672
G1 X125.393 Y91.011 E6.16878
G1 X126.312 Y91.064 E6.19786
G1 X127.223 Y91.197 E6.22695
G1 X128.119 Y91.408 E6.25604
G1 X128.993 Y91.696 E6.28512
G1 X129.84 Y92.059 E6.31423
G1 X130.651 Y92.494 E6.34331
G1 X131.421 Y92.998 E6.37239
G1 X132.145 Y93.567 E6.40149
G1 X132.817 Y94.197 E6.43059
G1 X133.432 Y94.882 E6.45968
G1 X133.985 Y95.618 E6.48877
G1 X134.472 Y96.399 E6.51785
G1 X134.889 Y97.22 E6.54694
G1 X135.234 Y98.074 E6.57605
G1 X135.503 Y98.954 E6.60512
G1 X135.695 Y99.855 E6.63423
G1 X135.808 Y100.768 E6.6633
G1 X135.837 Y101.312 E6.68051
G1 X135.846 Y101.632 E6.69063
G1 X135.85 Y101.93 E6.70004
G1 X135.849 Y102.382 E6.71433
G1 X135.839 Y103.104 E6.73714
G1 X135.823 Y103.552 E6.75131
G1 X135.675 Y106.177 E6.83438
G1 X135.603 Y108.736 E6.91527
G1 X135.603 Y111.246 E6.99458
G1 X135.676 Y113.813 E7.07572
G1 X135.779 Y115.752 E7.13707
G1 X135.818 Y116.36 E7.15632
G1 X135.838 Y116.8 E7.17024
G1 X135.844 Y117.071 E7.17881
G1 X135.849 Y117.554 E7.19407
G1 X135.849 Y117.81 E7.20216
G1 X135.839 Y118.537 E7.22513
G1 X135.786 Y119.456 E7.25422
G1 X135.654 Y120.367 E7.2833
G1 X135.443 Y121.263 E7.31239
G1 X135.156 Y122.138 E7.34149
G1 X134.793 Y122.984 E7.37057
G1 X134.359 Y123.796 E7.39966
G1 X133.855 Y124.567 E7.42877
G1 X133.287 Y125.291 E7.45785
G1 X132.658 Y125.963 E7.48693
G1 X131.973 Y126.578 E7.51602
G1 X131.237 Y127.131 E7.5451
G1 X130.456 Y127.619 E7.5742
G1 X129.636 Y128.037 E7.60329
G1 X128.782 Y128.382 E7.63239
G1 X127.902 Y128.651 E7.66146
G1 X127.001 Y128.844 E7.69058
G1 X126.088 Y128.957 E7.71965
G1 X125.538 Y128.987 E7.73705
G1 X125.218 Y128.996 E7.74717
G1 X124.92 Y129 E7.75658
G1 X119.475 Y128.999 E7.92863
G1 X118.15 Y128.98 E7.9705
G1 X115.538 Y128.98 E8.05303
G1 X114.658 Y128.998 E8.08084
G1 X114.43 Y129 E8.08805
G1 X108.875 Y128.999 E8.26357
G1 X107.55 Y128.98 E8.30544
G1 X104.938 Y128.98 E8.38797
G1 X104.058 Y128.998 E8.41578
G1 X103.83 Y129 E8.42299
G1 X98.248 Y128.999 E8.59936
G1 X97.547 Y128.989 E8.62151
G1 X96.628 Y128.936 E8.6506
G1 X95.717 Y128.803 E8.67969
G1 X94.821 Y128.592 E8.70878
G1 X93.946 Y128.304 E8.73788
G1 X93.1 Y127.941 E8.76697
G1 X92.289 Y127.506 E8.79605
G1 X91.518 Y127.002 E8.82515
G1 X90.515 Y126.185 E8.86603
G1 X90.362 Y126.044 E8.8726
G1 X90.128 Y125.822 E8.88279
G1 X89.933 Y125.631 E8.89142
G1 X87.619 Y123.316 E8.99484
G1 X87.148 Y122.83 E9.01623
G1 X86.537 Y122.142 E9.0453
G1 X85.987 Y121.403 E9.07441
G1 X85.504 Y120.619 E9.1035
G1 X85.091 Y119.797 E9.13257
G1 X84.75 Y118.941 E9.16169
G1 X84.485 Y118.059 E9.19079
G1 X84.298 Y117.158 E9.21986
G1 X84.166 Y115.811 E9.26263
G1 X84.156 Y115.427 E9.27476
G1 X84.15 Y114.871 E9.29233
G1 X84.151 Y105.098 E9.60113
G1 X84.161 Y104.396 E9.62331
G1 X84.214 Y103.477 E9.6524
G1 X84.347 Y102.566 E9.68149
G1 X84.558 Y101.67 E9.71058
G1 X84.846 Y100.795 E9.73968
G1 X85.209 Y99.949 E9.76877
G1 X85.644 Y99.138 E9.79785
G1 X86.148 Y98.367 E9.82695
G1 X86.989 Y97.338 E9.86895
G1 X87.13 Y97.186 E9.8755
G1 X87.324 Y96.982 E9.88439
G1 X87.585 Y96.716 E9.89617
G1 X89.713 Y94.587 E9.99128
G1 X89.754 Y94.548 E9.99307
G0 F1350 X90.328 Y93.991
G0 F7500 X90.606 Y94.278
G1 F1500 X91.282 Y93.68 E10.02158
G1 X92.009 Y93.143 E10.05014
G1 X92.78 Y92.673 E10.07867
G1 X93.59 Y92.273 E10.10722
G1 X94.432 Y91.947 E10.13575
G1 X95.299 Y91.696 E10.16427
G1 X96.186 Y91.523 E10.19282
G1 X97.353 Y91.416 E10.22985
G1 X97.72 Y91.406 E10.24145
G1 X98.254 Y91.4 E10.25832
G1 X103.327 Y91.4 E10.41862
G1 X104.665 Y91.418 E10.4609
G1 X107.283 Y91.418 E10.54362
G1 X108.854 Y91.4 E10.59326
G1 X114.072 Y91.401 E10.75813
G1 X115.265 Y91.418 E10.79583
G1 X117.883 Y91.418 E10.87856
G1 X119.454 Y91.4 E10.9282
G1 X124.689 Y91.401 E11.09361
G1 X125.387 Y91.411 E11.11567
G1 X126.289 Y91.464 E11.14422
G1 X127.182 Y91.596 E11.17274
G1 X128.06 Y91.807 E11.20127
G1 X128.916 Y92.095 E11.22981
G1 X129.743 Y92.457 E11.25833
G1 X130.535 Y92.892 E11.28688
G1 X131.286 Y93.394 E11.31543
G1 X131.989 Y93.961 E11.34396
G1 X132.639 Y94.588 E11.3725
G1 X133.231 Y95.27 E11.40103
G1 X133.761 Y96.001 E11.42956
G1 X134.223 Y96.777 E11.4581
G1 X134.616 Y97.59 E11.48663
G1 X134.934 Y98.435 E11.51516
G1 X135.177 Y99.305 E11.5437
G1 X135.342 Y100.193 E11.57224
G1 X135.437 Y101.323 E11.60807
G1 X135.446 Y101.643 E11.61819
G1 X135.45 Y101.93 E11.62726
G1 X135.449 Y102.376 E11.64135
G1 X135.439 Y103.098 E11.66416
G1 X135.424 Y103.53 E11.67782
G1 X135.275 Y106.181 E11.76172
G1 X135.203 Y108.724 E11.8421
G1 X135.203 Y111.258 E11.92217
G1 X135.275 Y113.804 E12.00265
G1 X135.381 Y115.797 E12.06571
G1 X135.419 Y116.386 E12.08436
G1 X135.438 Y116.814 E12.09789
G1 X135.444 Y117.075 E12.10614
G1 X135.449 Y117.558 E12.12141
G1 X135.449 Y117.804 E12.12918
G1 X135.439 Y118.531 E12.15215
G1 X135.387 Y119.433 E12.1807
G1 X135.255 Y120.326 E12.20922
G1 X135.044 Y121.205 E12.23779
G1 X134.757 Y122.061 E12.26631
G1 X134.395 Y122.888 E12.29484
G1 X133.961 Y123.68 E12.32337
G1 X133.459 Y124.431 E12.35192
G1 X132.893 Y125.134 E12.38043
G1 X132.266 Y125.785 E12.40899
G1 X131.585 Y126.377 E12.4375
G1 X130.854 Y126.907 E12.46603
G1 X130.078 Y127.37 E12.49459
G1 X129.265 Y127.763 E12.52312
G1 X128.42 Y128.083 E12.55167
G1 X127.551 Y128.326 E12.58018
G1 X126.663 Y128.491 E12.60872
G1 X125.527 Y128.587 E12.64474
G1 X125.207 Y128.596 E12.65485
G1 X124.92 Y128.6 E12.66392
G1 X119.481 Y128.599 E12.83578
G1 X118.156 Y128.58 E12.87765
G1 X115.53 Y128.58 E12.96063
G1 X114.654 Y128.598 E12.98831
G1 X114.426 Y128.6 E12.99551
G1 X108.881 Y128.599 E13.17072
G1 X107.556 Y128.58 E13.21259
G1 X104.93 Y128.58 E13.29557
G1 X104.054 Y128.598 E13.32325
G1 X103.826 Y128.6 E13.33045
G1 X98.254 Y128.599 E13.50651
G1 X97.553 Y128.589 E13.52867
G1 X96.651 Y128.536 E13.55722
G1 X95.758 Y128.404 E13.58574
G1 X94.879 Y128.193 E13.6143
G1 X94.023 Y127.905 E13.64284
G1 X93.196 Y127.543 E13.67136
G1 X92.404 Y127.109 E13.6999
G1 X91.654 Y126.606 E13.72843
G1 X90.786 Y125.891 E13.76397
G1 X90.633 Y125.75 E13.77054
G1 X90.408 Y125.536 E13.78035
G1 X90.213 Y125.345 E13.78898
G1 X87.906 Y123.038 E13.89206
G1 X87.435 Y122.552 E13.91345
G1 X86.836 Y121.876 E13.94199
G1 X86.299 Y121.15 E13.97052
G1 X85.828 Y120.379 E13.99907
G1 X85.428 Y119.57 E14.02758
G1 X85.1 Y118.728 E14.05614
G1 X84.848 Y117.861 E14.08466
G1 X84.674 Y116.975 E14.11319
G1 X84.566 Y115.797 E14.15057
G1 X84.556 Y115.423 E14.16239
G1 X84.55 Y114.871 E14.17984
G1 X84.551 Y105.104 E14.48845
G1 X84.561 Y104.402 E14.51063
G1 X84.614 Y103.5 E14.53918
G1 X84.746 Y102.607 E14.5677
G1 X84.957 Y101.729 E14.59623
G1 X85.245 Y100.873 E14.62477
G1 X85.607 Y100.045 E14.65332
G1 X86.041 Y99.253 E14.68186
G1 X86.544 Y98.503 E14.71039
G1 X87.282 Y97.61 E14.747
G1 X87.423 Y97.458 E14.75355
G1 X87.61 Y97.262 E14.76211
G1 X87.868 Y96.999 E14.77375
G1 X90.032 Y94.835 E14.87045
G0 F1350 X90.119 Y94.749
G0 X90.606 Y94.278
G1 F1500 E8.87045
;MESH:CableClip1.stl(1)
G0 F7500 X97.098 Y101.254
G0 X97.863 Y102.018
G0 X97.083 Y103.623
;TYPE:WALL-INNER
G1 F1500 E14.87045
G1 X97.05 Y103.945 E14.88068
G1 X97.05 Y104.18 E14.8881
G1 X97.05 Y115.823 E15.25599
G1 X97.05 Y116.081 E15.26414
G1 X97.093 Y116.387 E15.2739
G1 X96.919 Y116.213 E15.27529
G1 X96.737 Y116.031 E15.28141
G1 X95.75 Y115.044 E15.32551
G1 X95.75 Y104.956 E15.64426
G1 X96.739 Y103.967 E15.68845
G1 X96.905 Y103.801 E15.69367
G1 X97.083 Y103.623 E15.69523
G0 F7500 X98.339 Y102.685
G0 X98.729 Y102.514
G0 X99.109 Y102.461
G0 X103.178 Y102.472
G0 X103.35 Y102.81
G1 F1500 X103.35 Y102.71 E15.69839
G1 X103.35 Y102.3 E15.71135
G1 X99.097 Y102.3 E15.84573
G1 X98.683 Y102.358 E15.85894
G1 X98.254 Y102.548 E15.87376
G1 X98.2 Y102.592 E15.87597
G1 X97.889 Y102.85 E15.88873
G1 X97.626 Y103.233 E15.90341
G1 X97.481 Y103.662 E15.91772
G1 X97.45 Y103.965 E15.92735
G1 X97.45 Y116.053 E16.30929
G1 X97.508 Y116.467 E16.3225
G1 X97.698 Y116.896 E16.33733
G1 X98 Y117.261 E16.3523
G1 X98.22 Y117.412 E16.36073
G1 X98.383 Y117.524 E16.36698
G1 X98.812 Y117.669 E16.38128
G1 X99.115 Y117.7 E16.39091
G1 X103.35 Y117.7 E16.52472
G1 X103.35 Y117.29 E16.53768
G1 X103.35 Y117.19 E16.54084
G1 X103.45 Y117.29 E16.54221
G1 X103.45 Y117.7 E16.54546
G1 X103.45 Y117.8 E16.54752
G1 X103.35 Y117.8 E16.54957
G1 X99.115 Y117.8 E16.58311
G1 X98.812 Y117.8 E16.58588
G1 X98.383 Y117.8 E16.5927
G1 X98.185 Y117.8 E16.59804
G1 X97.94 Y117.8 E16.60578
G1 X95.35 Y115.21 E16.72152
G1 X95.35 Y104.79 E17.05076
G1 X97.94 Y102.2 E17.16649
G1 X98.184 Y102.2 E17.1742
G1 X98.254 Y102.2 E17.17628
G1 X98.683 Y102.2 E17.18476
G1 X99.097 Y102.2 E17.18897
G1 X103.35 Y102.2 E17.22265
G1 X103.45 Y102.2 E17.22471
G1 X103.45 Y102.3 E17.22677
G1 X103.45 Y102.71 E17.23001
G1 X103.35 Y102.81 E17.23139
G0 F7500 X102.95 Y103.7
;TYPE:WALL-OUTER
G1 F1500 X102.95 Y103.309 E17.24313
G1 X102.95 Y102.7 E17.26141
G1 X99.125 Y102.7 E17.37622
G1 X98.794 Y102.746 E17.38625
G1 X98.466 Y102.891 E17.39702
G1 X98.187 Y103.122 E17.40789
G1 X97.987 Y103.414 E17.41852
G1 X97.874 Y103.747 E17.42907
G1 X97.85 Y103.985 E17.43625
G1 X97.85 Y116.025 E17.79766
G1 X97.896 Y116.356 E17.80769
G1 X98.041 Y116.684 E17.81846
G1 X98.272 Y116.963 E17.82933
G1 X98.564 Y117.163 E17.83995
G1 X98.897 Y117.276 E17.85051
G1 X99.135 Y117.3 E17.85769
G1 X102.95 Y117.3 E17.9722
G1 X102.95 Y116.691 E17.99048
G1 X102.95 Y116.3 E18.00222
G1 X103.026 Y116.3 E18.0045
G1 X103.302 Y116.576 E18.01183
G1 X103.85 Y117.124 E18.0351
G1 X103.85 Y118.2 E18.06739
G1 X97.774 Y118.2 E18.24978
G1 X94.95 Y115.376 E18.36966
G1 X94.95 Y104.624 E18.69241
G1 X97.774 Y101.8 E18.81229
G1 X103.85 Y101.8 E18.99467
G1 X103.85 Y102.876 E19.02697
G1 X103.302 Y103.424 E19.05023
G1 X103.026 Y103.7 E19.05756
G1 X102.95 Y103.7 E19.05985
G0 F7500 X102.95 Y103.309
G0 X102.95 Y103.3
G0 X103.188 Y103.202
G0 X103.178 Y102.472
G0 X99.109 Y102.461
G0 X98.729 Y102.514
G0 X98.378 Y102.667
G0 X96.463 Y104.399
G0 X96.66 Y104.596
;TYPE:SKIN
G1 F1500 X96.66 Y115.404 E19.40135
G1 X96.14 Y114.884 E19.42458
G1 X96.14 Y105.181 E19.73117
G0 F1350 X96.14 Y105.116
G0 X96.66 Y104.596
G0 F7500 X96.3 Y105.351
G1 F1500 X96.5 Y105.551 E19.74011
G0 F7500 X96.3 Y105.916
G1 F1500 X96.5 Y106.116 E19.74904
G0 F7500 X96.3 Y106.482
G1 F1500 X96.5 Y106.682 E19.75798
G0 F7500 X96.3 Y107.048
G1 F1500 X96.5 Y107.248 E19.76692
G0 F7500 X96.3 Y107.613
G1 F1500 X96.5 Y107.813 E19.77586
G0 F7500 X96.3 Y108.179
G1 F1500 X96.5 Y108.379 E19.78479
G0 F7500 X96.3 Y108.745
G1 F1500 X96.5 Y108.945 E19.79373
G0 F7500 X96.3 Y109.31
G1 F1500 X96.5 Y109.511 E19.80269
G0 F7500 X96.3 Y109.876
G1 F1500 X96.5 Y110.076 E19.81163
G0 F7500 X96.3 Y110.442
G1 F1500 X96.5 Y110.642 E19.82056
G0 F7500 X96.3 Y111.007
G1 F1500 X96.5 Y111.208 E19.82952
G0 F7500 X96.3 Y111.573
G1 F1500 X96.5 Y111.773 E19.83846
G0 F7500 X96.3 Y112.139
G1 F1500 X96.5 Y112.339 E19.8474
G0 F7500 X96.3 Y112.705
G1 F1500 X96.5 Y112.905 E19.85633
G0 F7500 X96.3 Y113.27
G1 F1500 X96.5 Y113.47 E19.86527
G0 F7500 X96.3 Y113.836
G1 F1500 X96.5 Y114.036 E19.87421
G0 F7500 X96.3 Y114.402
G1 F1500 X96.5 Y114.602 E19.88314
G0 F7500 X96.847 Y115.515
