;FLAVOR:Marlin
;TIME:12970
;Filament used: 8.49372m
;Layer height: 0.2
;MINX:76.137
;MINY:71.869
;MINZ:0.2
;MAXX:143.805
;MAXY:148.127
;MAXZ:20
;Generated with Cura_SteamEngine 4.8.0
M140 S75
M105
M190 S75
M104 S215
M105
M109 S215
M82 ;absolute extrusion mode
; Ender 3 Custom Start G-code
G92 E0 ; Reset Extruder
G28 ; Home all axes
G1 Z2.0 F3000 ; Move Z Axis up little to prevent scratching of Heat Bed
G1 X0.1 Y20 Z0.3 F5000.0 ; Move to start position
G1 X0.1 Y200.0 Z0.3 F1500.0 E15 ; Draw the first line
G1 X0.4 Y200.0 Z0.3 F5000.0 ; Move to side a little
G1 X0.4 Y20 Z0.3 F1500.0 E30 ; Draw the second line
G92 E0 ; Reset Extruder
G1 Z2.0 F3000 ; Move Z Axis up little to prevent scratching of Heat Bed
G1 X5 Y20 Z0.3 F5000.0 ; Move over to prevent blob squish
G92 E0
G92 E0
G1 F1500 E-6
;LAYER_COUNT:100
;LAYER:0
M107
M204 S500
M205 X8 Y8
G0 F7500 X97.202 Y76.103 Z0.2
;TYPE:SKIRT
G1 F1500 E0
G1 X98.108 Y75.138 E0.04182
G1 X98.343 Y74.916 E0.05204
G1 X99.052 Y74.301 E0.08169
G1 X99.81 Y73.75 E0.1113
G1 X100.613 Y73.264 E0.14096
G1 X101.454 Y72.849 E0.17059
G1 X102.327 Y72.507 E0.20022
G1 X103.226 Y72.241 E0.22984
G1 X103.841 Y72.106 E0.24974
G1 X104.025 Y72.071 E0.25566
G1 X104.953 Y71.935 E0.28529
G1 X105.935 Y71.878 E0.31637
G1 X106.608 Y71.87 E0.33764
G1 X112.796 Y71.869 E0.53316
G1 X113.647 Y71.88 E0.56005
G1 X114.583 Y71.934 E0.58968
G1 X115.511 Y72.067 E0.6193
G1 X116.763 Y72.378 E0.66006
G1 X116.888 Y72.417 E0.6642
G1 X117.771 Y72.734 E0.69384
G1 X118.623 Y73.126 E0.72347
G1 X119.439 Y73.588 E0.7531
G1 X120.213 Y74.118 E0.78274
G1 X120.979 Y74.749 E0.8141
G1 X121.203 Y74.951 E0.82363
G1 X121.872 Y75.608 E0.85326
G1 X122.434 Y76.258 E0.88041
G1 X122.988 Y77.015 E0.91005
G1 X123.475 Y77.816 E0.93967
G1 X123.791 Y78.433 E0.96157
G1 X124.152 Y79.2 E0.98836
G1 X124.717 Y80.44 E1.03142
G1 X125.814 Y82.678 E1.11017
G1 X126.991 Y84.916 E1.19007
G1 X128.113 Y86.919 E1.26261
G1 X142.044 Y111.057 E2.14321
G1 X142.402 Y111.696 E2.16635
G1 X142.825 Y112.533 E2.19598
G1 X143.175 Y113.403 E2.22561
G1 X143.45 Y114.299 E2.25523
G1 X143.647 Y115.216 E2.28486
G1 X143.766 Y116.146 E2.31449
G1 X143.805 Y117.083 E2.34412
G1 X143.767 Y117.991 E2.37284
G1 X143.754 Y118.146 E2.37775
G1 X143.635 Y119.077 E2.40741
G1 X143.385 Y120.191 E2.44348
G1 X143.324 Y120.409 E2.45063
G1 X143.033 Y121.301 E2.48028
G1 X142.667 Y122.164 E2.5099
G1 X142.229 Y122.994 E2.53955
G1 X141.722 Y123.782 E2.56916
G1 X141.163 Y124.509 E2.59814
G1 X141.101 Y124.583 E2.60119
G1 X140.468 Y125.276 E2.63084
G1 X139.486 Y126.152 E2.67242
G1 X138.982 Y126.549 E2.6927
G1 X137.583 Y127.623 E2.74842
G1 X135.621 Y129.219 E2.82834
G1 X133.732 Y130.847 E2.90713
G1 X131.869 Y132.546 E2.9868
G1 X130.045 Y134.307 E3.06691
G1 X128.308 Y136.082 E3.14538
G1 X126.583 Y137.945 E3.22561
G1 X124.923 Y139.847 E3.30538
G1 X123.327 Y141.781 E3.38461
G1 X122.545 Y142.79 E3.42494
G1 X121.831 Y143.689 E3.46122
G1 X121.308 Y144.3 E3.48663
G1 X121.238 Y144.376 E3.48989
G1 X120.808 Y144.817 E3.50936
G1 X120.638 Y144.982 E3.51684
G1 X119.938 Y145.606 E3.54647
G1 X119.187 Y146.168 E3.57611
G1 X118.391 Y146.664 E3.60574
G1 X117.219 Y147.238 E3.64698
G1 X117.152 Y147.266 E3.64927
G1 X116.272 Y147.591 E3.67891
G1 X115.367 Y147.839 E3.70856
G1 X114.445 Y148.009 E3.73819
G1 X113.06 Y148.116 E3.78208
G1 X112.179 Y148.127 E3.80992
G1 X106.482 Y148.126 E3.98993
G1 X105.779 Y148.116 E4.01214
G1 X104.842 Y148.063 E4.0418
G1 X103.914 Y147.93 E4.07142
G1 X103 Y147.718 E4.10107
G1 X102.108 Y147.43 E4.13068
G1 X101.243 Y147.066 E4.16034
G1 X100.346 Y146.591 E4.19241
G1 X100.207 Y146.509 E4.19751
G1 X99.42 Y145.999 E4.22714
G1 X98.68 Y145.423 E4.25677
G1 X97.907 Y144.701 E4.29019
G1 X97.735 Y144.524 E4.29799
G1 X96.936 Y143.605 E4.33647
G1 X96.227 Y142.69 E4.37304
G1 X95.848 Y142.187 E4.39294
G1 X94.278 Y140.221 E4.47244
G1 X92.63 Y138.274 E4.55304
G1 X90.969 Y136.419 E4.63171
G1 X89.264 Y134.621 E4.71001
G1 X87.434 Y132.799 E4.7916
G1 X85.635 Y131.104 E4.8697
G1 X83.773 Y129.448 E4.94844
G1 X80.779 Y126.966 E5.07132
G1 X80.507 Y126.749 E5.08231
G1 X79.581 Y125.917 E5.12165
G1 X79.385 Y125.72 E5.13043
G1 X78.753 Y125.028 E5.16004
G1 X78.181 Y124.284 E5.18969
G1 X77.675 Y123.494 E5.21933
G1 X77.239 Y122.664 E5.24896
G1 X76.874 Y121.8 E5.27859
G1 X76.585 Y120.908 E5.30822
G1 X76.397 Y120.119 E5.33385
G1 X76.357 Y119.919 E5.34029
G1 X76.212 Y118.993 E5.36991
G1 X76.144 Y117.895 E5.40467
G1 X76.137 Y117.267 E5.42451
G1 X76.138 Y111.441 E5.6086
G1 X76.149 Y110.735 E5.63091
G1 X76.204 Y109.798 E5.66057
G1 X76.338 Y108.87 E5.69019
G1 X76.551 Y107.957 E5.71982
G1 X76.712 Y107.427 E5.73732
G1 X76.741 Y107.34 E5.74022
G1 X77.076 Y106.464 E5.76985
G1 X77.483 Y105.62 E5.79946
G1 X77.962 Y104.813 E5.82911
G1 X78.507 Y104.05 E5.85874
G1 X79.06 Y103.395 E5.88582
G1 X79.909 Y102.466 E5.92559
G1 X80.032 Y102.321 E5.93159
G1 X80.783 Y101.503 E5.96668
G1 X82.467 Y99.56 E6.04792
G1 X84.052 Y97.628 E6.12689
G1 X85.601 Y95.624 E6.20692
G1 X87.058 Y93.623 E6.28513
G1 X88.502 Y91.519 E6.36576
G1 X89.861 Y89.415 E6.4449
G1 X91.149 Y87.291 E6.52339
G1 X92.423 Y85.048 E6.6049
G1 X93.592 Y82.847 E6.68364
G1 X94.698 Y80.617 E6.76229
G1 X95.047 Y79.849 E6.78895
G1 X95.143 Y79.66 E6.79565
G1 X95.698 Y78.473 E6.83705
G1 X96.131 Y77.641 E6.86668
G1 X96.634 Y76.85 E6.8963
G1 X96.718 Y76.74 E6.90068
G0 F1350 X97.202 Y76.103
G0 F7500 X97.542 Y76.32
G1 F1500 X98.383 Y75.429 E6.93939
G1 X98.618 Y75.207 E6.9496
G1 X99.314 Y74.604 E6.9787
G1 X100.06 Y74.064 E7.0078
G1 X100.849 Y73.591 E7.03687
G1 X101.677 Y73.188 E7.06596
G1 X102.537 Y72.859 E7.09506
G1 X103.422 Y72.605 E7.12415
G1 X103.916 Y72.499 E7.14011
G1 X104.1 Y72.464 E7.14603
G1 X105.011 Y72.331 E7.17512
G1 X105.941 Y72.278 E7.20456
G1 X106.608 Y72.27 E7.22563
G1 X112.796 Y72.269 E7.42116
G1 X113.641 Y72.28 E7.44786
G1 X114.56 Y72.333 E7.47694
G1 X115.471 Y72.466 E7.50603
G1 X116.644 Y72.76 E7.54424
G1 X116.769 Y72.799 E7.54838
G1 X117.635 Y73.111 E7.57747
G1 X118.471 Y73.497 E7.60656
G1 X119.27 Y73.954 E7.63564
G1 X120.027 Y74.479 E7.66475
G1 X120.711 Y75.046 E7.69283
G1 X120.935 Y75.248 E7.70236
G1 X121.591 Y75.894 E7.73145
G1 X122.121 Y76.508 E7.75708
G1 X122.665 Y77.251 E7.78617
G1 X123.141 Y78.039 E7.81526
G1 X123.429 Y78.603 E7.83527
G1 X123.788 Y79.366 E7.86191
G1 X124.352 Y80.603 E7.90487
G1 X125.458 Y82.861 E7.98432
G1 X126.646 Y85.119 E8.06493
G1 X127.745 Y87.081 E8.13599
G1 X141.695 Y111.252 E9.01779
G1 X142.053 Y111.891 E9.04094
G1 X142.467 Y112.713 E9.07002
G1 X142.809 Y113.568 E9.09912
G1 X143.075 Y114.449 E9.12819
G1 X143.264 Y115.35 E9.15728
G1 X143.374 Y116.264 E9.18637
G1 X143.404 Y117.184 E9.21546
G1 X143.368 Y117.958 E9.23994
G1 X143.355 Y118.113 E9.24485
G1 X143.238 Y119.026 E9.27394
G1 X143 Y120.083 E9.30817
G1 X142.939 Y120.301 E9.31532
G1 X142.653 Y121.176 E9.34441
G1 X142.291 Y122.023 E9.37352
G1 X141.858 Y122.835 E9.40259
G1 X141.356 Y123.607 E9.43169
G1 X140.856 Y124.253 E9.4575
G1 X140.794 Y124.327 E9.46055
G1 X140.173 Y125.006 E9.48963
G1 X139.238 Y125.838 E9.52917
G1 X138.738 Y126.231 E9.54927
G1 X137.35 Y127.297 E9.60456
G1 X135.374 Y128.904 E9.68504
G1 X133.467 Y130.547 E9.76458
G1 X131.586 Y132.263 E9.84503
G1 X129.783 Y134.004 E9.92422
G1 X127.994 Y135.831 E10.00502
G1 X126.287 Y137.676 E10.08444
G1 X124.632 Y139.571 E10.16393
G1 X123.015 Y141.531 E10.24422
G1 X122.232 Y142.541 E10.2846
G1 X121.518 Y143.44 E10.32087
G1 X121.014 Y144.029 E10.34537
G1 X120.944 Y144.105 E10.34863
G1 X120.53 Y144.53 E10.36738
G1 X120.36 Y144.695 E10.37487
G1 X119.672 Y145.307 E10.40396
G1 X118.933 Y145.857 E10.43307
G1 X118.15 Y146.341 E10.46215
G1 X117.064 Y146.869 E10.50031
G1 X116.997 Y146.897 E10.5026
G1 X116.133 Y147.215 E10.53169
G1 X115.245 Y147.457 E10.56078
G1 X114.339 Y147.62 E10.58986
G1 X113.055 Y147.716 E10.63055
G1 X112.179 Y147.727 E10.65823
G1 X106.487 Y147.726 E10.83808
G1 X105.784 Y147.716 E10.86029
G1 X104.865 Y147.663 E10.88938
G1 X103.954 Y147.53 E10.91847
G1 X103.058 Y147.319 E10.94755
G1 X102.184 Y147.031 E10.97663
G1 X101.337 Y146.668 E11.00575
G1 X100.549 Y146.247 E11.03398
G1 X100.41 Y146.165 E11.03908
G1 X99.638 Y145.663 E11.06817
G1 X98.913 Y145.096 E11.09725
G1 X98.194 Y144.422 E11.12839
G1 X98.022 Y144.245 E11.13619
G1 X97.252 Y143.36 E11.17326
G1 X96.64 Y142.572 E11.20478
G1 X96.181 Y141.964 E11.22886
G1 X94.577 Y139.955 E11.31008
G1 X92.95 Y138.033 E11.38965
G1 X91.258 Y136.143 E11.4698
G1 X89.52 Y134.31 E11.54962
G1 X87.745 Y132.543 E11.62876
G1 X85.893 Y130.797 E11.70918
G1 X84.041 Y129.151 E11.78747
G1 X80.999 Y126.629 E11.91232
G1 X80.757 Y126.436 E11.9221
G1 X79.865 Y125.635 E11.95999
G1 X79.669 Y125.438 E11.96877
G1 X79.048 Y124.758 E11.99786
G1 X78.489 Y124.026 E12.02697
G1 X77.996 Y123.249 E12.05604
G1 X77.572 Y122.432 E12.08513
G1 X77.22 Y121.581 E12.11422
G1 X76.944 Y120.703 E12.1433
G1 X76.789 Y120.041 E12.16479
G1 X76.749 Y119.841 E12.17123
G1 X76.608 Y118.931 E12.20033
G1 X76.544 Y117.89 E12.23328
G1 X76.537 Y117.267 E12.25297
G1 X76.538 Y111.447 E12.43687
G1 X76.549 Y110.741 E12.45918
G1 X76.604 Y109.822 E12.48827
G1 X76.737 Y108.911 E12.51736
G1 X76.95 Y108.015 E12.54646
G1 X77.092 Y107.554 E12.5617
G1 X77.121 Y107.467 E12.56459
G1 X77.45 Y106.607 E12.59369
G1 X77.852 Y105.779 E12.62277
G1 X78.324 Y104.989 E12.65185
G1 X78.864 Y104.243 E12.68095
G1 X79.355 Y103.665 E12.70491
G1 X80.135 Y102.813 E12.74141
G1 X80.327 Y102.591 E12.75068
G1 X81.097 Y101.752 E12.78667
G1 X82.76 Y99.834 E12.86688
G1 X84.368 Y97.874 E12.94698
G1 X85.896 Y95.898 E13.02591
G1 X87.395 Y93.838 E13.10641
G1 X88.835 Y91.741 E13.18678
G1 X90.196 Y89.634 E13.26604
G1 X91.505 Y87.474 E13.34585
G1 X92.778 Y85.234 E13.42725
G1 X93.947 Y83.034 E13.50597
G1 X95.046 Y80.817 E13.58416
G1 X95.411 Y80.014 E13.61203
G1 X95.519 Y79.801 E13.61957
G1 X96.061 Y78.643 E13.65997
G1 X96.486 Y77.827 E13.68904
G1 X96.982 Y77.05 E13.71817
G1 X97.056 Y76.954 E13.722
G0 F1350 X97.542 Y76.32
G0 F7500 X97.882 Y76.538
G1 F1500 X98.658 Y75.719 E13.75765
G1 X98.893 Y75.497 E13.76786
G1 X99.576 Y74.907 E13.79638
G1 X100.309 Y74.379 E13.82493
G1 X101.085 Y73.918 E13.85345
G1 X101.9 Y73.528 E13.88199
G1 X102.745 Y73.211 E13.91051
G1 X103.991 Y72.892 E13.95115
G1 X104.175 Y72.857 E13.95707
G1 X105.069 Y72.727 E13.98561
G1 X105.946 Y72.678 E14.01337
G1 X106.608 Y72.67 E14.03429
G1 X112.796 Y72.669 E14.22981
G1 X113.635 Y72.68 E14.25632
G1 X114.537 Y72.733 E14.28487
G1 X115.43 Y72.866 E14.3134
G1 X116.525 Y73.142 E14.34908
G1 X116.65 Y73.181 E14.35322
G1 X117.499 Y73.488 E14.38174
G1 X118.318 Y73.869 E14.41028
G1 X119.1 Y74.32 E14.43881
G1 X119.839 Y74.84 E14.46736
G1 X120.443 Y75.343 E14.49219
G1 X120.667 Y75.545 E14.50173
G1 X121.31 Y76.179 E14.53026
G1 X121.809 Y76.758 E14.55441
G1 X122.341 Y77.488 E14.58295
G1 X122.807 Y78.261 E14.61147
G1 X123.067 Y78.774 E14.62964
G1 X123.424 Y79.532 E14.65612
G1 X123.986 Y80.766 E14.69896
G1 X125.103 Y83.044 E14.77913
G1 X126.292 Y85.307 E14.8599
G1 X127.421 Y87.322 E14.93288
G1 X141.346 Y111.448 E15.81306
G1 X141.704 Y112.087 E15.8362
G1 X142.11 Y112.893 E15.86472
G1 X142.443 Y113.733 E15.89327
G1 X142.7 Y114.598 E15.92178
G1 X142.88 Y115.483 E15.95032
G1 X142.982 Y116.381 E15.97887
G1 X143.003 Y117.283 E16.00738
G1 X142.969 Y117.924 E16.02766
G1 X142.956 Y118.079 E16.03258
G1 X142.841 Y118.975 E16.06112
G1 X142.615 Y119.976 E16.09355
G1 X142.554 Y120.194 E16.1007
G1 X142.272 Y121.052 E16.12924
G1 X141.916 Y121.881 E16.15774
G1 X141.487 Y122.676 E16.18629
G1 X140.99 Y123.43 E16.21482
G1 X140.55 Y123.996 E16.23747
G1 X140.488 Y124.07 E16.24052
G1 X139.877 Y124.736 E16.26908
G1 X138.99 Y125.524 E16.30657
G1 X138.495 Y125.914 E16.32648
G1 X137.082 Y126.999 E16.38277
G1 X135.123 Y128.592 E16.46255
G1 X133.2 Y130.249 E16.54276
G1 X131.323 Y131.962 E16.62305
G1 X129.483 Y133.738 E16.70386
G1 X127.732 Y135.527 E16.78295
G1 X125.976 Y137.425 E16.86466
G1 X124.32 Y139.32 E16.94417
G1 X122.706 Y141.277 E17.02433
G1 X121.918 Y142.293 E17.06495
G1 X121.204 Y143.192 E17.10123
G1 X120.72 Y143.758 E17.12476
G1 X120.65 Y143.834 E17.12802
G1 X120.251 Y144.243 E17.14608
G1 X120.081 Y144.408 E17.15356
G1 X119.406 Y145.008 E17.1821
G1 X118.68 Y145.546 E17.21065
G1 X117.91 Y146.017 E17.23917
G1 X116.91 Y146.5 E17.27426
G1 X116.843 Y146.528 E17.27656
G1 X115.995 Y146.839 E17.30509
G1 X115.123 Y147.074 E17.33363
G1 X114.234 Y147.231 E17.36215
G1 X113.05 Y147.316 E17.39966
G1 X112.179 Y147.327 E17.42719
G1 X106.493 Y147.326 E17.60685
G1 X105.79 Y147.316 E17.62906
G1 X104.888 Y147.263 E17.65761
G1 X103.995 Y147.131 E17.68613
G1 X103.117 Y146.92 E17.71467
G1 X102.261 Y146.632 E17.7432
G1 X101.434 Y146.27 E17.77173
G1 X100.752 Y145.902 E17.79621
G1 X100.613 Y145.82 E17.80131
G1 X99.857 Y145.327 E17.82983
G1 X99.146 Y144.77 E17.85837
G1 X98.481 Y144.143 E17.88725
G1 X98.309 Y143.966 E17.89505
G1 X97.568 Y143.115 E17.9307
G1 X96.866 Y142.209 E17.96692
G1 X96.467 Y141.68 E17.98785
G1 X94.896 Y139.713 E18.06739
G1 X93.252 Y137.77 E18.14781
G1 X91.563 Y135.884 E18.22781
G1 X89.81 Y134.034 E18.30834
G1 X88.018 Y132.251 E18.38821
G1 X86.15 Y130.491 E18.46931
G1 X84.309 Y128.853 E18.54717
G1 X81.254 Y126.321 E18.67254
G1 X81.007 Y126.124 E18.68253
G1 X80.148 Y125.353 E18.719
G1 X79.952 Y125.156 E18.72778
G1 X79.344 Y124.488 E18.75632
G1 X78.798 Y123.769 E18.78485
G1 X78.317 Y123.005 E18.81337
G1 X77.906 Y122.201 E18.8419
G1 X77.567 Y121.364 E18.87044
G1 X77.304 Y120.5 E18.89897
G1 X77.181 Y119.962 E18.91641
G1 X77.141 Y119.762 E18.92286
G1 X77.003 Y118.87 E18.95138
G1 X76.944 Y117.886 E18.98252
G1 X76.937 Y117.267 E19.00208
G1 X76.938 Y111.453 E19.18579
G1 X76.949 Y110.747 E19.2081
G1 X77.003 Y109.846 E19.23662
G1 X77.137 Y108.952 E19.26518
G1 X77.471 Y107.68 E19.30674
G1 X77.5 Y107.593 E19.30963
G1 X77.824 Y106.75 E19.33817
G1 X78.22 Y105.939 E19.36669
G1 X78.687 Y105.166 E19.39522
G1 X79.22 Y104.437 E19.42376
G1 X79.651 Y103.935 E19.44466
G1 X80.532 Y102.972 E19.4859
G1 X80.622 Y102.862 E19.49039
G1 X81.393 Y102.022 E19.52642
G1 X83.058 Y100.102 E19.60672
G1 X84.661 Y98.147 E19.6866
G1 X86.249 Y96.093 E19.76864
G1 X87.716 Y94.079 E19.84737
G1 X89.157 Y91.979 E19.92784
G1 X90.531 Y89.852 E20.00785
G1 X91.861 Y87.657 E20.08895
G1 X93.105 Y85.469 E20.16847
G1 X94.3 Y83.22 E20.24894
G1 X95.416 Y80.97 E20.3283
G1 X95.775 Y80.18 E20.35572
G1 X95.874 Y79.985 E20.36263
G1 X96.423 Y78.812 E20.40355
G1 X96.841 Y78.012 E20.43207
G1 X97.329 Y77.252 E20.46061
G1 X97.393 Y77.17 E20.4639
G0 F1350 X97.882 Y76.538
G1 F1500 E14.4639
;MESH:Ender_3_Bottom_Spool_Holder.stl
G0 F7500 X97.866 Y109.879
G0 X97.866 Y110.963
G0 X88.316 Y111.758
G0 X88.137 Y117.18
;TYPE:WALL-INNER
G1 F1500 E20.4639
G1 X88.137 Y116.981 E20.47019
G1 X88.137 Y111.674 E20.63787
G1 X88.137 Y111.624 E20.63945
G1 X88.424 Y111.54 E20.6489
G1 X88.474 Y111.54 E20.65048
G1 X100.629 Y111.545 E21.03454
G1 X106.598 Y108.102 E21.25227
G1 X106.597 Y85.011 E21.98188
G1 X106.631 Y85.011 E21.98296
G1 X106.631 Y83.87 E22.01901
G1 X112.496 Y83.869 E22.20433
G1 X131.611 Y116.984 E23.41247
G1 X122.376 Y122.315 E23.7494
G1 X120.915 Y122.889 E23.799
G1 X119.328 Y123.129 E23.84971
G1 X112.227 Y123.133 E24.07408
G1 X112.233 Y135.928 E24.47837
G1 X112.233 Y136.127 E24.48466
G1 X112.034 Y136.127 E24.48872
G1 X106.6 Y136.127 E24.66042
G1 X106.598 Y117.179 E25.25913
G1 X88.336 Y117.18 E25.83615
G1 X88.137 Y117.18 E25.84022
G0 F7500 X88.117 Y117.606
G1 F1500 X87.737 Y117.605 E25.85223
G1 X87.737 Y117.586 E25.85283
G1 X87.737 Y111.303 E26.05135
G1 X87.737 Y111.163 E26.05578
G1 X87.808 Y111.303 E26.05657
G1 X88.367 Y111.14 E26.07496
G1 X100.522 Y111.145 E26.45903
G1 X106.198 Y107.871 E26.66607
G1 X106.197 Y84.611 E27.40102
G1 X106.231 Y84.611 E27.40209
G1 X106.231 Y83.47 E27.43814
G1 X112.727 Y83.469 E27.6434
G1 X132.157 Y117.13 E28.87146
G1 X131.811 Y117.329 E28.88407
G1 X122.55 Y122.676 E29.22197
G1 X121.015 Y123.279 E29.27408
G1 X119.362 Y123.529 E29.3269
G1 X112.627 Y123.533 E29.53971
G1 X112.633 Y136.328 E29.94399
G1 X112.633 Y136.527 E29.95028
G1 X112.434 Y136.527 E29.95435
G1 X106.2 Y136.527 E30.15133
G1 X106.198 Y117.579 E30.75003
G1 X88.151 Y117.58 E31.32026
G1 X88.132 Y117.595 E31.32103
G1 X88.117 Y117.606 E31.3216
