;FLAVOR:Marlin
;TIME:3683
;Filament used: 3.9568m
;Layer height: 0.28
;MINX:75.977
;MINY:71.71
;MINZ:0.28
;MAXX:144.019
;MAXY:148.286
;MAXZ:19.88
;Generated with Cura_SteamEngine 4.8.0
M140 S60
M105
M190 S60
M104 S200
M105
M109 S200
M82 ;absolute extrusion mode
; Ender 3 Custom Start G-code
G92 E0 ; Reset Extruder
G28 ; Home all axes
G1 Z2.0 F3000 ; Move Z Axis up little to prevent scratching of Heat Bed
G1 X0.1 Y20 Z0.3 F5000.0 ; Move to start position
G1 X0.1 Y200.0 Z0.3 F1500.0 E15 ; Draw the first line
G1 X0.4 Y200.0 Z0.3 F5000.0 ; Move to side a little
G1 X0.4 Y20 Z0.3 F1500.0 E30 ; Draw the second line
G92 E0 ; Reset Extruder
G1 Z2.0 F3000 ; Move Z Axis up little to prevent scratching of Heat Bed
G1 X5 Y20 Z0.3 F5000.0 ; Move over to prevent blob squish
G92 E0
G92 E0
G1 F1500 E-6
;LAYER_COUNT:71
;LAYER:0
M107
M204 S500
M205 X8 Y8
G0 F7500 X97.134 Y75.822 Z0.28
;TYPE:SKIRT
G1 F1500 E0
G1 X97.765 Y75.128 E0.04149
G1 X98.453 Y74.491 E0.08297
G1 X99.192 Y73.914 E0.12444
G1 X99.979 Y73.402 E0.16598
G1 X100.689 Y73.017 E0.2017
G1 X100.822 Y72.951 E0.20827
G1 X101.679 Y72.57 E0.24976
G1 X102.494 Y72.285 E0.28795
G1 X102.762 Y72.203 E0.30035
G1 X103.669 Y71.967 E0.34181
G1 X104.594 Y71.81 E0.38331
G1 X105.175 Y71.751 E0.40914
G1 X105.879 Y71.72 E0.44032
G1 X106.646 Y71.711 E0.47425
G1 X112.812 Y71.71 E0.74701
G1 X113.678 Y71.721 E0.78532
G1 X114.614 Y71.774 E0.82679
G1 X115.543 Y71.907 E0.8683
G1 X116.743 Y72.202 E0.92297
G1 X116.939 Y72.262 E0.93204
G1 X117.823 Y72.574 E0.9735
G1 X118.361 Y72.807 E0.99944
G1 X118.578 Y72.908 E1.01003
G1 X119.41 Y73.34 E1.0515
G1 X120.203 Y73.841 E1.09299
G1 X120.95 Y74.408 E1.13448
G1 X121.647 Y75.036 E1.17598
G1 X122.287 Y75.721 E1.21745
G1 X122.867 Y76.459 E1.25897
G1 X123.381 Y77.243 E1.30044
G1 X123.985 Y78.407 E1.35845
G1 X124.062 Y78.581 E1.36687
G1 X125.175 Y80.99 E1.48425
G1 X126.28 Y83.213 E1.59407
G1 X127.488 Y85.483 E1.70782
G1 X128.338 Y86.99 E1.78435
G1 X142.159 Y110.935 E3.00737
G1 X142.541 Y111.617 E3.04195
G1 X142.964 Y112.454 E3.08343
G1 X143.314 Y113.324 E3.12492
G1 X143.594 Y114.245 E3.1675
G1 X143.671 Y114.544 E3.18116
G1 X143.866 Y115.461 E3.22263
G1 X143.983 Y116.392 E3.26413
G1 X144.019 Y117.329 E3.30561
G1 X143.975 Y118.266 E3.34711
G1 X143.852 Y119.196 E3.38861
G1 X143.697 Y119.928 E3.42171
G1 X143.674 Y120.021 E3.42594
G1 X143.411 Y120.921 E3.46742
G1 X143.071 Y121.795 E3.50891
G1 X142.658 Y122.637 E3.55039
G1 X142.175 Y123.441 E3.59188
G1 X141.425 Y124.448 E3.64742
G1 X141.212 Y124.702 E3.66209
G1 X140.579 Y125.394 E3.70358
G1 X139.89 Y126.03 E3.74505
G1 X139.38 Y126.436 E3.77389
G1 X137.328 Y128.037 E3.88902
G1 X135.407 Y129.624 E3.99925
G1 X133.485 Y131.308 E4.11229
G1 X131.66 Y132.999 E4.22234
G1 X129.854 Y134.772 E4.3343
G1 X128.1 Y136.591 E4.44608
G1 X126.411 Y138.446 E4.55706
G1 X124.763 Y140.364 E4.66892
G1 X123.179 Y142.315 E4.78009
G1 X122.155 Y143.646 E4.85437
G1 X121.906 Y143.96 E4.8721
G1 X121.292 Y144.669 E4.91359
G1 X120.621 Y145.324 E4.95507
G1 X119.896 Y145.919 E4.99656
G1 X119.123 Y146.45 E5.03804
G1 X118.078 Y147.027 E5.09085
G1 X117.892 Y147.117 E5.09999
G1 X117.031 Y147.489 E5.14148
G1 X116.142 Y147.786 E5.18294
G1 X115.252 Y148.003 E5.22346
G1 X114.916 Y148.07 E5.23862
G1 X113.989 Y148.214 E5.28012
G1 X112.878 Y148.281 E5.32935
G1 X112.376 Y148.286 E5.35156
G1 X106.466 Y148.285 E5.613
G1 X105.763 Y148.275 E5.6441
G1 X104.826 Y148.222 E5.68561
G1 X103.898 Y148.089 E5.72708
G1 X102.768 Y147.815 E5.77852
G1 X102.671 Y147.786 E5.783
G1 X102.049 Y147.58 E5.81198
G1 X101.808 Y147.492 E5.82333
G1 X100.942 Y147.133 E5.8648
G1 X100.109 Y146.701 E5.90631
G1 X99.316 Y146.2 E5.9478
G1 X98.568 Y145.634 E5.9893
G1 X97.872 Y145.006 E6.03077
G1 X97.458 Y144.576 E6.05717
G1 X97.395 Y144.507 E6.0613
G1 X96.799 Y143.797 E6.10231
G1 X95.163 Y141.67 E6.22101
G1 X93.577 Y139.724 E6.33206
G1 X91.943 Y137.834 E6.44258
G1 X90.233 Y135.96 E6.55481
G1 X88.485 Y134.154 E6.66599
G1 X86.688 Y132.398 E6.77713
G1 X84.841 Y130.692 E6.88836
G1 X82.942 Y129.038 E6.99976
G1 X80.876 Y127.337 E7.11814
G1 X80.269 Y126.853 E7.15248
G1 X79.561 Y126.237 E7.19399
G1 X78.909 Y125.563 E7.23548
G1 X78.316 Y124.837 E7.27694
G1 X77.787 Y124.062 E7.31845
G1 X77.326 Y123.245 E7.35995
G1 X76.811 Y122.068 E7.41678
G1 X76.669 Y121.684 E7.43489
G1 X76.381 Y120.791 E7.4764
G1 X76.171 Y119.878 E7.51784
G1 X76.039 Y118.949 E7.55935
G1 X75.992 Y118.233 E7.59109
G1 X75.981 Y117.823 E7.60923
G1 X75.977 Y117.403 E7.62781
G1 X75.978 Y111.424 E7.8923
G1 X75.989 Y110.718 E7.92353
G1 X76.044 Y109.781 E7.96505
G1 X76.178 Y108.853 E8.00653
G1 X76.44 Y107.768 E8.05591
G1 X76.469 Y107.67 E8.06043
G1 X76.678 Y107.035 E8.09
G1 X76.767 Y106.79 E8.10153
G1 X77.125 Y105.923 E8.14302
G1 X77.555 Y105.09 E8.18449
G1 X78.054 Y104.296 E8.22598
G1 X78.619 Y103.548 E8.26744
G1 X79.014 Y103.095 E8.29403
G1 X79.726 Y102.322 E8.34052
G1 X81.495 Y100.345 E8.45787
G1 X83.104 Y98.439 E8.56821
G1 X84.667 Y96.481 E8.67904
G1 X86.191 Y94.456 E8.79115
G1 X87.642 Y92.41 E8.90211
G1 X89.051 Y90.299 E9.01438
G1 X90.382 Y88.176 E9.12522
G1 X91.649 Y86.023 E9.23573
G1 X92.88 Y83.789 E9.34856
G1 X94.019 Y81.576 E9.45866
G1 X95.116 Y79.29 E9.57083
G1 X95.332 Y78.812 E9.59403
G1 X95.625 Y78.189 E9.62449
G1 X96.06 Y77.358 E9.66598
G1 X96.564 Y76.567 E9.70747
G1 X97.134 Y75.822 E9.74896
G0 F7500 X97.473 Y76.039
G1 F1500 X98.097 Y75.362 E9.78969
G1 X98.776 Y74.741 E9.8304
G1 X99.507 Y74.181 E9.87113
G1 X100.284 Y73.687 E9.91186
G1 X100.867 Y73.375 E9.94111
G1 X101 Y73.309 E9.94768
G1 X101.842 Y72.936 E9.98842
G1 X102.611 Y72.668 E10.02444
G1 X102.879 Y72.586 E10.03684
G1 X103.77 Y72.355 E10.07756
G1 X104.678 Y72.202 E10.11829
G1 X105.206 Y72.15 E10.14176
G1 X105.884 Y72.12 E10.17178
G1 X106.646 Y72.111 E10.20549
G1 X112.812 Y72.11 E10.47825
G1 X113.672 Y72.121 E10.51629
G1 X114.592 Y72.174 E10.55706
G1 X115.503 Y72.307 E10.59779
G1 X116.626 Y72.584 E10.64895
G1 X116.822 Y72.644 E10.65802
G1 X117.69 Y72.952 E10.69876
G1 X118.192 Y73.17 E10.72297
G1 X118.409 Y73.271 E10.73356
G1 X119.226 Y73.695 E10.77428
G1 X120.003 Y74.189 E10.81501
G1 X120.734 Y74.748 E10.85571
G1 X121.414 Y75.369 E10.89645
G1 X122.038 Y76.046 E10.93718
G1 X122.601 Y76.775 E10.97792
G1 X123.098 Y77.55 E11.01865
G1 X123.619 Y78.569 E11.06928
G1 X123.681 Y78.709 E11.07605
G1 X124.812 Y81.157 E11.19534
G1 X125.926 Y83.4 E11.30612
G1 X127.127 Y85.656 E11.41918
G1 X128.043 Y87.28 E11.50166
G1 X141.882 Y111.258 E12.72634
G1 X142.192 Y111.812 E12.75442
G1 X142.607 Y112.634 E12.79515
G1 X142.948 Y113.489 E12.83587
G1 X143.207 Y114.344 E12.87539
G1 X143.284 Y114.643 E12.88905
G1 X143.475 Y115.544 E12.92979
G1 X143.587 Y116.458 E12.97052
G1 X143.619 Y117.378 E13.01125
G1 X143.571 Y118.298 E13.052
G1 X143.443 Y119.209 E13.09269
G1 X143.309 Y119.832 E13.12088
G1 X143.286 Y119.925 E13.12512
G1 X143.026 Y120.808 E13.16584
G1 X142.691 Y121.666 E13.20658
G1 X142.283 Y122.491 E13.2473
G1 X141.804 Y123.277 E13.28801
G1 X141.118 Y124.191 E13.33857
G1 X140.905 Y124.445 E13.35323
G1 X140.283 Y125.124 E13.39396
G1 X139.605 Y125.747 E13.4347
G1 X139.133 Y126.122 E13.46136
G1 X137.09 Y127.716 E13.57599
G1 X135.118 Y129.345 E13.68914
G1 X133.232 Y130.997 E13.80005
G1 X131.372 Y132.721 E13.91223
G1 X129.568 Y134.492 E14.02406
G1 X127.815 Y136.31 E14.13578
G1 X126.129 Y138.163 E14.2466
G1 X124.451 Y140.114 E14.36044
G1 X122.867 Y142.065 E14.4716
G1 X121.842 Y143.397 E14.54595
G1 X121.593 Y143.711 E14.56368
G1 X120.99 Y144.407 E14.60442
G1 X120.329 Y145.048 E14.64515
G1 X119.615 Y145.629 E14.68587
G1 X118.853 Y146.146 E14.7266
G1 X117.904 Y146.667 E14.77449
G1 X117.718 Y146.757 E14.78363
G1 X116.873 Y147.121 E14.82433
G1 X115.999 Y147.411 E14.86507
G1 X115.174 Y147.61 E14.90261
G1 X114.838 Y147.677 E14.91776
G1 X113.928 Y147.818 E14.9585
G1 X112.874 Y147.881 E15.00521
G1 X112.376 Y147.886 E15.02724
G1 X106.471 Y147.885 E15.28845
G1 X105.768 Y147.875 E15.31955
G1 X104.849 Y147.822 E15.36027
G1 X103.938 Y147.689 E15.401
G1 X102.883 Y147.432 E15.44903
G1 X102.786 Y147.403 E15.45351
G1 X102.186 Y147.204 E15.48147
G1 X101.945 Y147.116 E15.49282
G1 X101.095 Y146.763 E15.53354
G1 X100.279 Y146.337 E15.57426
G1 X99.502 Y145.843 E15.61499
G1 X98.772 Y145.283 E15.65569
G1 X98.092 Y144.661 E15.69645
G1 X97.753 Y144.306 E15.71817
G1 X97.69 Y144.237 E15.7223
G1 X97.116 Y143.553 E15.7618
G1 X95.474 Y141.419 E15.88091
G1 X93.905 Y139.493 E15.9908
G1 X92.223 Y137.548 E16.10455
G1 X90.532 Y135.695 E16.21552
G1 X88.768 Y133.873 E16.3277
G1 X86.938 Y132.084 E16.44091
G1 X85.11 Y130.396 E16.55098
G1 X83.196 Y128.728 E16.66328
G1 X81.162 Y127.054 E16.77981
G1 X80.518 Y126.54 E16.81626
G1 X79.824 Y125.935 E16.85699
G1 X79.185 Y125.272 E16.89772
G1 X78.606 Y124.557 E16.93842
G1 X78.091 Y123.793 E16.97918
G1 X77.644 Y122.988 E17.01991
G1 X77.186 Y121.929 E17.07095
G1 X77.044 Y121.545 E17.08906
G1 X76.762 Y120.669 E17.12977
G1 X76.558 Y119.771 E17.17051
G1 X76.432 Y118.859 E17.21123
G1 X76.392 Y118.22 E17.23956
G1 X76.381 Y117.819 E17.2573
G1 X76.377 Y117.399 E17.27588
G1 X76.378 Y111.43 E17.53993
G1 X76.389 Y110.724 E17.57116
G1 X76.444 Y109.805 E17.61189
G1 X76.577 Y108.894 E17.65261
G1 X76.824 Y107.881 E17.69874
G1 X76.853 Y107.783 E17.70326
G1 X77.054 Y107.172 E17.73171
G1 X77.143 Y106.927 E17.74324
G1 X77.495 Y106.076 E17.78398
G1 X77.919 Y105.259 E17.8247
G1 X78.412 Y104.482 E17.8654
G1 X78.971 Y103.75 E17.90615
G1 X79.308 Y103.366 E17.92875
G1 X80.035 Y102.577 E17.97621
G1 X81.8 Y100.604 E18.09331
G1 X83.389 Y98.723 E18.20223
G1 X85.014 Y96.686 E18.3175
G1 X86.493 Y94.722 E18.42626
G1 X87.985 Y92.618 E18.54036
G1 X89.38 Y90.527 E18.65155
G1 X90.717 Y88.396 E18.76284
G1 X92 Y86.213 E18.87485
G1 X93.228 Y83.986 E18.98734
G1 X94.377 Y81.753 E19.09843
G1 X95.484 Y79.446 E19.21163
G1 X95.694 Y78.982 E19.23416
G1 X95.987 Y78.359 E19.26461
G1 X96.415 Y77.543 E19.30537
G1 X96.911 Y76.768 E19.34607
G1 X97.473 Y76.039 E19.38679
G0 F7500 X97.813 Y76.258
G1 F1500 X98.428 Y75.597 E19.42673
G1 X99.099 Y74.993 E19.46667
G1 X99.822 Y74.45 E19.50667
G1 X100.589 Y73.974 E19.5466
G1 X101.045 Y73.733 E19.56941
G1 X101.178 Y73.667 E19.57598
G1 X102.004 Y73.302 E19.61593
G1 X102.728 Y73.05 E19.64984
G1 X102.996 Y72.968 E19.66224
G1 X103.87 Y72.743 E19.70216
G1 X105.198 Y72.552 E19.76151
G1 X105.889 Y72.52 E19.79211
G1 X106.646 Y72.511 E19.8256
G1 X112.812 Y72.51 E20.09836
G1 X113.667 Y72.521 E20.13618
G1 X114.568 Y72.574 E20.17611
G1 X115.462 Y72.706 E20.21608
G1 X116.509 Y72.967 E20.26382
G1 X116.705 Y73.027 E20.27288
G1 X117.556 Y73.329 E20.31283
G1 X118.023 Y73.533 E20.33537
G1 X118.24 Y73.634 E20.34596
G1 X119.041 Y74.051 E20.38591
G1 X119.802 Y74.537 E20.42585
G1 X120.517 Y75.088 E20.46578
G1 X121.181 Y75.701 E20.50576
G1 X121.788 Y76.37 E20.54572
G1 X122.333 Y77.09 E20.58566
G1 X122.812 Y77.855 E20.62559
G1 X123.254 Y78.732 E20.66903
G1 X123.36 Y78.97 E20.68056
G1 X124.434 Y81.295 E20.79385
G1 X125.573 Y83.587 E20.90707
G1 X126.775 Y85.846 E21.02026
G1 X127.686 Y87.46 E21.10225
G1 X141.533 Y111.453 E22.32767
G1 X141.843 Y112.007 E22.35576
G1 X142.249 Y112.814 E22.39572
G1 X142.582 Y113.654 E22.43569
G1 X142.82 Y114.444 E22.47219
G1 X142.897 Y114.743 E22.48585
G1 X143.083 Y115.627 E22.52581
G1 X143.19 Y116.524 E22.56577
G1 X143.218 Y117.426 E22.60569
G1 X143.166 Y118.328 E22.64565
G1 X143.034 Y119.221 E22.68559
G1 X142.921 Y119.736 E22.70891
G1 X142.898 Y119.829 E22.71315
G1 X142.642 Y120.695 E22.75309
G1 X142.311 Y121.535 E22.79303
G1 X141.907 Y122.343 E22.833
G1 X141.433 Y123.112 E22.87296
G1 X140.812 Y123.934 E22.91853
G1 X140.599 Y124.188 E22.93319
G1 X139.988 Y124.854 E22.97317
G1 X139.321 Y125.463 E23.01313
G1 X138.938 Y125.768 E23.03479
G1 X136.813 Y127.425 E23.15399
G1 X134.883 Y129.02 E23.26474
G1 X132.943 Y130.719 E23.37882
G1 X131.103 Y132.424 E23.48979
G1 X129.301 Y134.193 E23.60149
G1 X127.514 Y136.046 E23.71537
G1 X125.813 Y137.916 E23.82719
G1 X124.152 Y139.847 E23.93986
G1 X122.559 Y141.809 E24.05166
G1 X121.528 Y143.149 E24.12645
G1 X121.279 Y143.463 E24.14418
G1 X120.687 Y144.145 E24.18413
G1 X120.037 Y144.772 E24.22408
G1 X119.334 Y145.339 E24.26403
G1 X118.584 Y145.842 E24.30398
G1 X117.73 Y146.307 E24.34699
G1 X117.544 Y146.397 E24.35613
G1 X116.714 Y146.754 E24.3961
G1 X115.856 Y147.036 E24.43605
G1 X115.096 Y147.218 E24.47062
G1 X114.76 Y147.285 E24.48578
G1 X113.867 Y147.422 E24.52574
G1 X112.87 Y147.481 E24.56992
G1 X112.376 Y147.486 E24.59178
G1 X106.477 Y147.485 E24.85273
G1 X105.774 Y147.475 E24.88383
G1 X104.872 Y147.422 E24.9238
G1 X103.979 Y147.29 E24.96373
G1 X102.997 Y147.049 E25.00846
G1 X102.9 Y147.02 E25.01294
G1 X102.323 Y146.828 E25.03984
G1 X102.082 Y146.74 E25.05119
G1 X101.249 Y146.393 E25.0911
G1 X100.449 Y145.974 E25.13105
G1 X99.689 Y145.485 E25.17103
G1 X98.976 Y144.932 E25.21094
G1 X98.048 Y144.037 E25.26798
G1 X97.985 Y143.968 E25.27211
G1 X97.434 Y143.309 E25.31011
G1 X95.803 Y141.189 E25.42843
G1 X94.202 Y139.224 E25.54055
G1 X92.537 Y137.298 E25.65317
G1 X90.817 Y135.414 E25.76602
G1 X89.053 Y133.591 E25.87824
G1 X87.224 Y131.804 E25.99135
G1 X85.38 Y130.101 E26.10239
G1 X83.447 Y128.416 E26.21582
G1 X81.384 Y126.719 E26.33399
G1 X80.768 Y126.227 E26.36886
G1 X80.087 Y125.633 E26.40884
G1 X79.462 Y124.982 E26.44876
G1 X78.897 Y124.277 E26.48873
G1 X78.396 Y123.525 E26.5287
G1 X77.964 Y122.732 E26.56864
G1 X77.561 Y121.791 E26.61393
G1 X77.419 Y121.407 E26.63204
G1 X77.144 Y120.547 E26.67198
G1 X76.945 Y119.666 E26.71193
G1 X76.826 Y118.77 E26.75192
G1 X76.792 Y118.207 E26.77687
G1 X76.781 Y117.815 E26.79421
G1 X76.777 Y117.395 E26.81279
G1 X76.778 Y111.436 E27.0764
G1 X76.789 Y110.73 E27.10763
G1 X76.843 Y109.829 E27.14756
G1 X76.977 Y108.935 E27.18755
G1 X77.207 Y107.995 E27.23035
G1 X77.236 Y107.897 E27.23488
G1 X77.43 Y107.308 E27.26231
G1 X77.519 Y107.063 E27.27384
G1 X77.865 Y106.229 E27.31378
G1 X78.283 Y105.429 E27.35371
G1 X78.77 Y104.668 E27.39368
G1 X79.602 Y103.637 E27.45228
G1 X80.343 Y102.832 E27.50068
G1 X82.087 Y100.883 E27.61637
G1 X83.723 Y98.946 E27.72853
G1 X85.3 Y96.97 E27.84037
G1 X86.852 Y94.908 E27.95453
G1 X88.3 Y92.866 E28.06527
G1 X89.719 Y90.74 E28.17834
G1 X91.057 Y88.606 E28.28976
G1 X92.346 Y86.415 E28.40221
G1 X93.583 Y84.171 E28.51555
G1 X94.736 Y81.93 E28.62704
G1 X95.844 Y79.62 E28.74037
G1 X96.056 Y79.152 E28.7631
G1 X96.349 Y78.529 E28.79355
G1 X96.769 Y77.73 E28.83348
G1 X97.258 Y76.97 E28.87346
G1 X97.813 Y76.258 E28.91339
G1 F1500 E22.91339
;MESH:Ender_3_Bottom_Spool_Holder.stl
G0 F7500 X105.718 Y82.098
G0 X106.049 Y83.13
G0 X112.589 Y83.71
;TYPE:WALL-INNER
G1 F1500 E28.91339
G1 F1800 X131.83 Y117.042 E30.6159
G1 X122.452 Y122.457 E31.09493
G1 X122.072 Y122.604 E31.11296
G1 X120.946 Y123.047 E31.16648
G1 X119.739 Y123.229 E31.22048
G1 X119.373 Y123.289 E31.23689
G1 X112.388 Y123.293 E31.54587
G1 X112.393 Y136.087 E32.11183
G1 X112.393 Y136.286 E32.12063
G1 X112.194 Y136.286 E32.12633
G1 X106.44 Y136.286 E32.38086
G1 X106.438 Y117.538 E33.2102
G1 X106.438 Y117.339 E33.219
G1 X106.239 Y117.339 E33.2247
G1 X88.217 Y117.341 E34.02192
G1 X88.059 Y117.341 E34.02891
G1 X87.977 Y117.387 E34.03307
G1 X87.977 Y117.341
G1 X87.977 Y117.183 E34.0381
G1 X87.977 Y111.579 E34.28599
G1 X87.977 Y111.38 E34.2948
G1 X88.176 Y111.38 E34.30049
G1 X100.586 Y111.384 E34.84946
G1 X106.439 Y108.01 E35.14831
G1 X106.437 Y84.656 E36.1814
G1 X106.467 Y84.647 E36.18279
G1 X106.466 Y83.91 E36.21539
G1 X106.466 Y83.711 E36.22419
G1 X106.665 Y83.711 E36.22989
G1 X112.589 Y83.71 E36.49194
G0 F7500 X113.442 Y83.536
G1 F1800 X113.296 Y83.536 E36.4984
G1 X113.295 Y83.536 E36.49844
G1 X112.951 Y83.536 E36.51366
G1 X113.123 Y83.834 E36.5223
G1 X132.376 Y117.188 E38.22591
G1 X132.03 Y117.387 E38.24357
G1 X122.652 Y122.802 E38.7226
G1 X122.622 Y122.82 E38.72415
G1 X122.218 Y122.977 E38.74332
G1 X121.092 Y123.418 E38.79682
G1 X121.051 Y123.435 E38.79878
G1 X121.006 Y123.441 E38.80079
G1 X119.81 Y123.623 E38.8543
G1 X119.56 Y123.675 E38.8656
G1 X119.395 Y123.689 E38.87293
G1 X112.788 Y123.693 E39.16519
G1 X112.793 Y136.487 E39.73115
G1 X112.793 Y136.686 E39.73995
G1 X112.594 Y136.686 E39.74565
G1 X106.04 Y136.686 E40.03557
G1 X106.038 Y117.938 E40.8649
