;FLAVOR:Marlin
;TIME:8554
;Filament used: 8.64905m
;Layer height: 0.28
;MINX:79.177
;MINY:74.91
;MINZ:0.28
;MAXX:140.828
;MAXY:145.086
;MAXZ:19.88
;Generated with Cura_SteamEngine 4.8.0
M140 S75
M105
M190 S75
M104 S225
M105
M109 S225
M82 ;absolute extrusion mode
; Ender 3 Custom Start G-code
G92 E0 ; Reset Extruder
G28 ; Home all axes
G1 Z2.0 F3000 ; Move Z Axis up little to prevent scratching of Heat Bed
G1 X0.1 Y20 Z0.3 F5000.0 ; Move to start position
G1 X0.1 Y200.0 Z0.3 F1500.0 E15 ; Draw the first line
G1 X0.4 Y200.0 Z0.3 F5000.0 ; Move to side a little
G1 X0.4 Y20 Z0.3 F1500.0 E30 ; Draw the second line
G92 E0 ; Reset Extruder
G1 Z2.0 F3000 ; Move Z Axis up little to prevent scratching of Heat Bed
G1 X5 Y20 Z0.3 F5000.0 ; Move over to prevent blob squish
G92 E0
G92 E0
G1 F1500 E-6
;LAYER_COUNT:71
;LAYER:0
M107
M204 S500
M205 X8 Y8
G0 F7500 X99.201 Y78.362 Z0.28
;TYPE:SKIRT
G1 F1500 E0
G1 X99.689 Y77.742 E0.0349
G1 X100.219 Y77.19 E0.06875
G1 X100.254 Y77.157 E0.07088
G1 X100.855 Y76.645 E0.10581
G1 X101.505 Y76.196 E0.14075
G1 X102.197 Y75.816 E0.17568
G1 X103.227 Y75.403 E0.22477
G1 X103.605 Y75.282 E0.24232
G1 X104.368 Y75.08 E0.27724
G1 X105.148 Y74.956 E0.31218
G1 X105.982 Y74.911 E0.34912
G1 X113.526 Y74.91 E0.68284
G1 X114.315 Y74.95 E0.71779
G1 X115.095 Y75.069 E0.75269
G1 X115.91 Y75.283 E0.78996
G1 X116.284 Y75.403 E0.80734
G1 X117.023 Y75.682 E0.84228
G1 X117.73 Y76.034 E0.87722
G1 X118.397 Y76.456 E0.91213
G1 X119.185 Y77.093 E0.95696
G1 X119.223 Y77.128 E0.95924
G1 X119.776 Y77.691 E0.99415
G1 X120.27 Y78.308 E1.02911
G1 X120.698 Y78.972 E1.06406
G1 X121.057 Y79.675 E1.09898
G1 X121.37 Y80.495 E1.1378
G1 X121.473 Y80.818 E1.1528
G1 X121.675 Y81.582 E1.18776
G1 X121.733 Y81.949 E1.20419
G1 X139.716 Y113.102 E2.7954
G1 X140.076 Y113.806 E2.83038
G1 X140.363 Y114.541 E2.86528
G1 X140.546 Y115.183 E2.89481
G1 X140.617 Y115.479 E2.90828
G1 X140.762 Y116.255 E2.9432
G1 X140.828 Y117.042 E2.97813
G1 X140.814 Y117.831 E3.01304
G1 X140.72 Y118.615 E3.04797
G1 X140.563 Y119.329 E3.08031
G1 X140.539 Y119.418 E3.08439
G1 X140.295 Y120.169 E3.11932
G1 X139.976 Y120.891 E3.15423
G1 X139.586 Y121.578 E3.18918
G1 X138.933 Y122.459 E3.23769
G1 X138.713 Y122.716 E3.25265
G1 X138.17 Y123.29 E3.28761
G1 X137.572 Y123.805 E3.32252
G1 X136.688 Y124.399 E3.36963
G1 X126.786 Y130.115 E3.8754
G1 X126.227 Y130.408 E3.90332
G1 X126.016 Y130.508 E3.91365
G1 X125.063 Y130.886 E3.959
G1 X125.032 Y130.896 E3.96044
G1 X124.048 Y131.281 E4.00718
G1 X123.299 Y131.531 E4.04211
G1 X122.384 Y131.727 E4.0835
G1 X121.326 Y131.889 E4.13085
G1 X121.191 Y131.913 E4.13692
G1 X121.193 Y136.809 E4.3535
G1 X121.153 Y137.598 E4.38844
G1 X121.034 Y138.378 E4.42335
G1 X120.872 Y139.027 E4.45294
G1 X120.779 Y139.341 E4.46742
G1 X120.517 Y140.086 E4.50236
G1 X120.18 Y140.8 E4.53728
G1 X119.774 Y141.477 E4.5722
G1 X119.3 Y142.11 E4.60719
G1 X118.749 Y142.707 E4.64312
G1 X118.707 Y142.748 E4.64572
G1 X118.114 Y143.271 E4.6807
G1 X117.472 Y143.731 E4.71563
G1 X116.787 Y144.123 E4.75055
G1 X115.815 Y144.536 E4.79726
G1 X115.472 Y144.655 E4.81332
G1 X114.713 Y144.876 E4.84829
G1 X113.937 Y145.019 E4.8832
G1 X112.915 Y145.086 E4.9285
G1 X105.916 Y145.086 E5.23811
G1 X105.127 Y145.046 E5.27306
G1 X104.347 Y144.927 E5.30796
G1 X103.359 Y144.655 E5.35329
G1 X103.019 Y144.537 E5.36921
G1 X102.287 Y144.24 E5.40416
G1 X101.588 Y143.872 E5.4391
G1 X100.931 Y143.434 E5.47403
G1 X100.193 Y142.813 E5.5167
G1 X100.15 Y142.772 E5.51933
G1 X99.607 Y142.199 E5.55425
G1 X99.125 Y141.574 E5.58916
G1 X98.708 Y140.903 E5.62411
G1 X98.361 Y140.194 E5.65903
G1 X98.052 Y139.336 E5.69937
G1 X97.959 Y139.021 E5.7139
G1 X97.774 Y138.253 E5.74884
G1 X97.668 Y137.47 E5.78379
G1 X97.64 Y136.813 E5.81288
G1 X97.639 Y126.14 E6.28501
G1 X89.759 Y126.141 E6.63359
G1 X89.391 Y126.21 E6.65016
G1 X88.604 Y126.277 E6.6851
G1 X87.814 Y126.263 E6.72005
G1 X87.322 Y126.214 E6.74192
G1 X86.874 Y126.155 E6.76191
G1 X86.639 Y126.123 E6.7724
G1 X85.859 Y126.001 E6.80732
G1 X85.212 Y125.836 E6.83686
G1 X84.889 Y125.739 E6.85178
G1 X84.145 Y125.474 E6.88672
G1 X83.431 Y125.135 E6.92168
G1 X82.756 Y124.726 E6.95659
G1 X82.126 Y124.25 E6.99152
G1 X81.705 Y123.871 E7.01658
G1 X81.673 Y123.84 E7.01855
G1 X81.134 Y123.263 E7.05348
G1 X80.657 Y122.634 E7.0884
G1 X80.245 Y121.96 E7.12334
G1 X79.904 Y121.248 E7.15826
G1 X79.734 Y120.805 E7.17925
G1 X79.611 Y120.452 E7.19579
G1 X79.39 Y119.694 E7.23072
G1 X79.246 Y118.917 E7.26567
G1 X79.177 Y117.885 E7.31143
G1 X79.177 Y110.889 E7.6209
G1 X79.217 Y110.1 E7.65585
G1 X79.336 Y109.32 E7.69075
G1 X79.609 Y108.328 E7.73627
G1 X79.731 Y107.977 E7.7527
G1 X80.028 Y107.245 E7.78765
G1 X80.397 Y106.547 E7.82257
G1 X80.835 Y105.89 E7.8575
G1 X81.497 Y105.111 E7.90273
G1 X81.528 Y105.079 E7.9047
G1 X82.105 Y104.54 E7.93963
G1 X82.734 Y104.063 E7.97455
G1 X83.408 Y103.651 E8.00949
G1 X84.12 Y103.31 E8.04441
G1 X84.914 Y103.027 E8.0817
G1 X85.238 Y102.931 E8.09665
G1 X86.319 Y102.693 E8.14561
G1 X86.523 Y102.663 E8.15473
G1 X87.66 Y102.58 E8.20516
G1 X97.639 Y102.583 E8.64659
G1 X97.637 Y83.912 E9.47252
G1 X97.666 Y83.336 E9.49804
G1 X97.666 Y83.199 E9.5041
G1 X97.705 Y82.41 E9.53904
G1 X97.823 Y81.629 E9.57398
G1 X98.041 Y80.797 E9.61203
G1 X98.145 Y80.474 E9.62704
G1 X98.425 Y79.736 E9.66196
G1 X98.778 Y79.03 E9.69687
G1 X99.201 Y78.362 E9.73185
G0 F7500 X99.562 Y78.545
G1 F1500 X100.043 Y77.944 E9.7659
G1 X100.494 Y77.481 E9.79449
G1 X100.529 Y77.448 E9.79662
G1 X101.115 Y76.95 E9.83064
G1 X101.75 Y76.516 E9.86466
G1 X102.426 Y76.15 E9.89867
G1 X103.349 Y75.784 E9.94259
G1 X103.727 Y75.663 E9.96015
G1 X104.471 Y75.467 E9.99418
G1 X105.231 Y75.349 E10.0282
G1 X105.982 Y75.311 E10.06147
G1 X113.526 Y75.31 E10.39518
G1 X114.294 Y75.35 E10.4292
G1 X115.054 Y75.469 E10.46323
G1 X115.788 Y75.664 E10.49683
G1 X116.162 Y75.784 E10.5142
G1 X116.881 Y76.057 E10.54822
G1 X117.568 Y76.402 E10.58223
G1 X118.215 Y76.818 E10.61626
G1 X118.914 Y77.387 E10.65613
G1 X118.952 Y77.422 E10.65841
G1 X119.49 Y77.972 E10.69245
G1 X119.968 Y78.574 E10.72645
G1 X120.381 Y79.223 E10.76048
G1 X120.724 Y79.912 E10.79453
G1 X120.989 Y80.617 E10.82784
G1 X121.092 Y80.94 E10.84284
G1 X121.287 Y81.684 E10.87686
G1 X121.348 Y82.082 E10.89468
G1 X139.37 Y113.302 E12.48931
G1 X139.719 Y113.988 E12.52336
G1 X139.996 Y114.705 E12.55736
G1 X140.157 Y115.276 E12.5836
G1 X140.228 Y115.572 E12.59707
G1 X140.368 Y116.328 E12.63108
G1 X140.429 Y117.095 E12.66511
G1 X140.41 Y117.864 E12.69914
G1 X140.312 Y118.627 E12.73317
G1 X140.177 Y119.225 E12.76029
G1 X140.153 Y119.314 E12.76437
G1 X139.914 Y120.045 E12.79839
G1 X139.601 Y120.747 E12.83239
G1 X139.217 Y121.414 E12.86643
G1 X138.63 Y122.199 E12.90979
G1 X138.41 Y122.456 E12.92476
G1 X137.88 Y123.014 E12.9588
G1 X137.295 Y123.513 E12.99282
G1 X136.488 Y124.053 E13.03577
G1 X126.586 Y129.769 E13.54154
G1 X126.055 Y130.047 E13.56805
G1 X125.844 Y130.147 E13.57838
G1 X124.94 Y130.505 E13.62139
G1 X124.895 Y130.519 E13.62348
G1 X123.902 Y130.908 E13.67065
G1 X123.172 Y131.151 E13.70469
G1 X122.324 Y131.332 E13.74304
G1 X121.234 Y131.499 E13.79182
G1 X121.175 Y131.511 E13.79449
G1 X120.791 Y131.567 E13.81165
G1 X120.793 Y136.809 E14.04354
G1 X120.753 Y137.577 E14.07756
G1 X120.634 Y138.337 E14.11159
G1 X120.488 Y138.913 E14.13787
G1 X120.395 Y139.227 E14.15236
G1 X120.139 Y139.953 E14.18641
G1 X119.809 Y140.647 E14.22041
G1 X119.408 Y141.304 E14.25445
G1 X118.941 Y141.915 E14.28847
G1 X118.469 Y142.421 E14.31908
G1 X118.427 Y142.462 E14.32168
G1 X117.85 Y142.97 E14.35569
G1 X117.222 Y143.415 E14.38973
G1 X116.552 Y143.793 E14.42376
G1 X115.684 Y144.158 E14.46542
G1 X115.341 Y144.277 E14.48148
G1 X114.602 Y144.491 E14.51551
G1 X113.845 Y144.627 E14.54953
G1 X112.915 Y144.686 E14.59076
G1 X105.916 Y144.686 E14.90036
G1 X105.148 Y144.646 E14.93438
G1 X104.388 Y144.527 E14.96841
G1 X103.49 Y144.277 E15.00965
G1 X103.15 Y144.159 E15.02557
G1 X102.437 Y143.869 E15.05962
G1 X101.759 Y143.507 E15.09361
G1 X101.121 Y143.077 E15.12765
G1 X100.469 Y142.524 E15.16547
G1 X100.426 Y142.483 E15.1681
G1 X99.898 Y141.924 E15.20211
G1 X99.431 Y141.313 E15.23613
G1 X99.029 Y140.657 E15.27016
G1 X98.698 Y139.963 E15.30418
G1 X98.436 Y139.222 E15.33894
G1 X98.343 Y138.907 E15.35347
G1 X98.164 Y138.159 E15.3875
G1 X98.063 Y137.397 E15.4215
G1 X98.04 Y136.813 E15.44735
G1 X98.039 Y125.74 E15.93718
G1 X89.738 Y125.741 E16.30438
G1 X89.138 Y125.838 E16.33127
G1 X88.37 Y125.881 E16.36529
G1 X87.374 Y125.818 E16.40944
G1 X86.926 Y125.759 E16.42943
G1 X86.661 Y125.723 E16.44126
G1 X85.902 Y125.601 E16.47527
G1 X85.327 Y125.453 E16.50153
G1 X85.004 Y125.356 E16.51645
G1 X84.279 Y125.097 E16.5505
G1 X83.586 Y124.764 E16.58452
G1 X82.931 Y124.361 E16.61854
G1 X82.321 Y123.892 E16.65257
G1 X81.951 Y123.553 E16.67477
G1 X81.427 Y122.99 E16.70879
G1 X80.965 Y122.375 E16.74282
G1 X80.568 Y121.716 E16.77685
G1 X80.112 Y120.673 E16.82721
G1 X79.989 Y120.32 E16.84374
G1 X79.774 Y119.581 E16.87779
G1 X79.637 Y118.825 E16.91178
G1 X79.577 Y117.885 E16.95344
G1 X79.577 Y110.889 E17.26292
G1 X79.617 Y110.121 E17.29694
G1 X79.736 Y109.361 E17.33097
G1 X79.987 Y108.459 E17.37238
G1 X80.109 Y108.108 E17.38882
G1 X80.399 Y107.396 E17.42283
G1 X80.761 Y106.718 E17.45683
G1 X81.192 Y106.08 E17.49089
G1 X81.784 Y105.389 E17.53114
G1 X81.815 Y105.357 E17.53311
G1 X82.378 Y104.833 E17.56713
G1 X82.993 Y104.371 E17.60116
G1 X83.652 Y103.974 E17.63519
G1 X84.349 Y103.649 E17.66921
G1 X85.028 Y103.411 E17.70104
G1 X85.352 Y103.315 E17.71599
G1 X86.377 Y103.089 E17.76242
G1 X86.581 Y103.059 E17.77154
G1 X87.66 Y102.98 E17.8194
G1 X98.039 Y102.983 E18.27852
G1 X98.037 Y83.912 E19.12215
G1 X98.066 Y83.351 E19.147
G1 X98.066 Y83.198 E19.15377
G1 X98.105 Y82.43 E19.18778
G1 X98.223 Y81.67 E19.2218
G1 X98.422 Y80.92 E19.25613
G1 X98.526 Y80.597 E19.27114
G1 X98.8 Y79.878 E19.30518
G1 X99.146 Y79.191 E19.3392
G1 X99.562 Y78.545 E19.37319
G0 F7500 X99.923 Y78.728
G1 F1500 X100.397 Y78.149 E19.40629
G1 X100.768 Y77.772 E19.42969
G1 X100.803 Y77.739 E19.43182
G1 X101.374 Y77.256 E19.4649
G1 X101.993 Y76.836 E19.49799
G1 X102.654 Y76.485 E19.5311
G1 X103.471 Y76.165 E19.56991
G1 X103.849 Y76.044 E19.58747
G1 X104.573 Y75.855 E19.62057
G1 X105.312 Y75.743 E19.65363
G1 X105.982 Y75.711 E19.68331
G1 X113.526 Y75.71 E20.01702
G1 X114.273 Y75.75 E20.05011
G1 X115.012 Y75.869 E20.08323
G1 X115.666 Y76.045 E20.11319
G1 X116.04 Y76.165 E20.13056
G1 X116.739 Y76.431 E20.16364
G1 X117.405 Y76.77 E20.1967
G1 X118.032 Y77.179 E20.22982
G1 X118.643 Y77.681 E20.2648
G1 X118.681 Y77.716 E20.26708
G1 X119.204 Y78.252 E20.30021
G1 X119.666 Y78.84 E20.33329
G1 X120.063 Y79.474 E20.36638
G1 X120.39 Y80.147 E20.39948
G1 X120.608 Y80.738 E20.42735
G1 X120.711 Y81.061 E20.44234
G1 X120.9 Y81.785 E20.47544
G1 X120.965 Y82.22 E20.4949
G1 X139.023 Y113.502 E22.0927
G1 X139.362 Y114.169 E22.1258
G1 X139.628 Y114.869 E22.15893
G1 X139.768 Y115.369 E22.18189
G1 X139.839 Y115.665 E22.19536
G1 X139.974 Y116.401 E22.22846
G1 X140.03 Y117.147 E22.26155
G1 X140.007 Y117.895 E22.29466
G1 X139.903 Y118.635 E22.32771
G1 X139.791 Y119.121 E22.34978
G1 X139.767 Y119.21 E22.35385
G1 X139.533 Y119.92 E22.38692
G1 X139.226 Y120.602 E22.42001
G1 X138.847 Y121.247 E22.4531
G1 X138.326 Y121.939 E22.49142
G1 X138.106 Y122.196 E22.50638
G1 X137.59 Y122.738 E22.53949
G1 X137.019 Y123.221 E22.57257
G1 X136.288 Y123.706 E22.61138
G1 X126.386 Y129.422 E23.11714
G1 X125.884 Y129.686 E23.14223
G1 X125.673 Y129.786 E23.15256
G1 X124.818 Y130.124 E23.19323
G1 X124.773 Y130.138 E23.19532
G1 X123.757 Y130.536 E23.24359
G1 X123.046 Y130.771 E23.27671
G1 X122.264 Y130.937 E23.31208
G1 X121.163 Y131.105 E23.36134
G1 X121.093 Y131.12 E23.36451
G1 X120.391 Y131.222 E23.39589
G1 X120.393 Y136.809 E23.64304
G1 X120.353 Y137.556 E23.67613
G1 X120.234 Y138.295 E23.70924
G1 X120.105 Y138.8 E23.7323
G1 X120.012 Y139.114 E23.74678
G1 X119.761 Y139.819 E23.77989
G1 X119.437 Y140.493 E23.81297
G1 X119.043 Y141.129 E23.84606
G1 X118.583 Y141.719 E23.87916
G1 X118.19 Y142.135 E23.90447
G1 X118.148 Y142.176 E23.90707
G1 X117.585 Y142.669 E23.94017
G1 X116.973 Y143.1 E23.97328
G1 X116.319 Y143.462 E24.00635
G1 X115.552 Y143.78 E24.04308
G1 X115.209 Y143.899 E24.05914
G1 X114.491 Y144.106 E24.0922
G1 X113.754 Y144.236 E24.1253
G1 X112.915 Y144.286 E24.16248
G1 X105.916 Y144.286 E24.47209
G1 X105.169 Y144.246 E24.50518
G1 X104.431 Y144.127 E24.53825
G1 X103.621 Y143.899 E24.57547
G1 X103.281 Y143.781 E24.59139
G1 X102.588 Y143.498 E24.6245
G1 X101.93 Y143.143 E24.65758
G1 X101.313 Y142.72 E24.69067
G1 X100.745 Y142.234 E24.72374
G1 X100.702 Y142.193 E24.72637
G1 X100.189 Y141.649 E24.75944
G1 X99.737 Y141.053 E24.79253
G1 X99.352 Y140.412 E24.82561
G1 X99.036 Y139.733 E24.85874
G1 X98.819 Y139.109 E24.88796
G1 X98.726 Y138.794 E24.90249
G1 X98.553 Y138.066 E24.93559
G1 X98.459 Y137.324 E24.96868
G1 X98.44 Y136.813 E24.9913
G1 X98.439 Y125.34 E25.49882
G1 X89.714 Y125.341 E25.88478
G1 X89.632 Y125.361 E25.88851
G1 X88.891 Y125.459 E25.92157
G1 X88.143 Y125.478 E25.95467
G1 X87.426 Y125.421 E25.98649
G1 X86.978 Y125.362 E26.00648
G1 X86.684 Y125.323 E26.0196
G1 X85.946 Y125.201 E26.05269
G1 X85.442 Y125.07 E26.07572
G1 X85.119 Y124.973 E26.09064
G1 X84.415 Y124.72 E26.12373
G1 X83.742 Y124.393 E26.15683
G1 X83.108 Y123.997 E26.1899
G1 X82.261 Y123.297 E26.23851
G1 X82.229 Y123.266 E26.24048
G1 X81.721 Y122.717 E26.27357
G1 X81.273 Y122.118 E26.30665
G1 X80.893 Y121.474 E26.33973
G1 X80.49 Y120.541 E26.38469
G1 X80.367 Y120.188 E26.40123
G1 X80.159 Y119.47 E26.43429
G1 X80.029 Y118.733 E26.4674
G1 X79.977 Y117.885 E26.50498
G1 X79.977 Y110.889 E26.81446
G1 X80.017 Y110.142 E26.84755
G1 X80.136 Y109.404 E26.88062
G1 X80.365 Y108.591 E26.91798
G1 X80.487 Y108.24 E26.93442
G1 X80.77 Y107.547 E26.96753
G1 X81.125 Y106.889 E27.0006
G1 X81.549 Y106.272 E27.03372
G1 X82.071 Y105.667 E27.06907
G1 X82.102 Y105.635 E27.07104
G1 X82.651 Y105.127 E27.10413
G1 X83.25 Y104.679 E27.13721
G1 X83.894 Y104.299 E27.17029
G1 X84.575 Y103.989 E27.20339
G1 X85.141 Y103.794 E27.22987
G1 X85.465 Y103.698 E27.24482
G1 X86.436 Y103.484 E27.28881
G1 X86.64 Y103.454 E27.29793
G1 X87.66 Y103.38 E27.34317
G1 X98.439 Y103.383 E27.81999
G1 X98.437 Y83.912 E28.6813
G1 X98.466 Y83.366 E28.70549
G1 X98.466 Y83.198 E28.71292
G1 X98.505 Y82.451 E28.74601
G1 X98.623 Y81.712 E28.77912
G1 X98.803 Y81.043 E28.80976
G1 X98.907 Y80.72 E28.82477
G1 X99.174 Y80.021 E28.85787
G1 X99.514 Y79.354 E28.89099
G1 X99.923 Y78.728 E28.92407
G0 F7500 X100.283 Y78.914
G1 F1500 X100.75 Y78.357 E28.95622
G1 X101.042 Y78.063 E28.97455
G1 X101.077 Y78.03 E28.97668
G1 X101.632 Y77.561 E29.00882
G1 X102.236 Y77.157 E29.04097
G1 X102.88 Y76.821 E29.0731
G1 X103.593 Y76.546 E29.10691
G1 X103.971 Y76.425 E29.12446
G1 X104.674 Y76.242 E29.1566
G1 X105.393 Y76.137 E29.18874
G1 X105.982 Y76.111 E29.21482
G1 X113.526 Y76.11 E29.54854
G1 X114.251 Y76.15 E29.58066
G1 X114.968 Y76.269 E29.61281
G1 X115.543 Y76.426 E29.63917
G1 X115.917 Y76.546 E29.65655
G1 X116.596 Y76.805 E29.6887
G1 X117.242 Y77.138 E29.72085
G1 X117.847 Y77.539 E29.75295
G1 X118.372 Y77.975 E29.78314
G1 X118.41 Y78.01 E29.78543
G1 X118.917 Y78.531 E29.81759
G1 X119.363 Y79.104 E29.84971
G1 X119.743 Y79.723 E29.88184
G1 X120.053 Y80.38 E29.91397
G1 X120.227 Y80.86 E29.93656
G1 X120.33 Y81.183 E29.95155
G1 X120.512 Y81.886 E29.98368
G1 X120.579 Y82.35 E30.00442
G1 X138.677 Y113.702 E31.60579
G1 X139.005 Y114.351 E31.63795
G1 X139.26 Y115.031 E31.67008
G1 X139.379 Y115.463 E31.6899
G1 X139.45 Y115.759 E31.70337
G1 X139.58 Y116.473 E31.73547
G1 X139.631 Y117.198 E31.76762
G1 X139.602 Y117.923 E31.79972
G1 X139.494 Y118.642 E31.83188
G1 X139.404 Y119.016 E31.8489
G1 X139.38 Y119.105 E31.85297
G1 X139.153 Y119.795 E31.88511
G1 X138.851 Y120.456 E31.91725
G1 X138.478 Y121.079 E31.94937
G1 X138.022 Y121.679 E31.98271
G1 X137.802 Y121.936 E31.99768
G1 X137.3 Y122.461 E32.02981
G1 X136.743 Y122.928 E32.06196
G1 X136.088 Y123.36 E32.09667
G1 X126.186 Y129.076 E32.60244
G1 X125.713 Y129.324 E32.62606
G1 X125.502 Y129.424 E32.63639
G1 X124.695 Y129.743 E32.67478
