;FLAVOR:Marlin
;TIME:2866
;Filament used: 1.62745m
;Layer height: 0.2
;MINX:78.6
;MINY:78.607
;MINZ:0.2
;MAXX:141.4
;MAXY:141.399
;MAXZ:10.4
;Generated with Cura_SteamEngine 4.8.0
M140 S75
M105
M190 S75
M104 S225
M105
M109 S225
M82 ;absolute extrusion mode
; Ender 3 Custom Start G-code
G92 E0 ; Reset Extruder
G28 ; Home all axes
G1 Z2.0 F3000 ; Move Z Axis up little to prevent scratching of Heat Bed
G1 X0.1 Y20 Z0.3 F5000.0 ; Move to start position
G1 X0.1 Y200.0 Z0.3 F1500.0 E15 ; Draw the first line
G1 X0.4 Y200.0 Z0.3 F5000.0 ; Move to side a little
G1 X0.4 Y20 Z0.3 F1500.0 E30 ; Draw the second line
G92 E0 ; Reset Extruder
G1 Z2.0 F3000 ; Move Z Axis up little to prevent scratching of Heat Bed
G1 X5 Y20 Z0.3 F5000.0 ; Move over to prevent blob squish
G92 E0
G92 E0
G1 F1500 E-6
;LAYER_COUNT:52
;LAYER:0
M107
M204 S500
M205 X8 Y8
G0 F7500 X94.373 Y85.634 Z0.2
;TYPE:SKIRT
G1 F1500 E0
G1 X94.77 Y85.199 E0.01861
G1 X95.128 Y84.828 E0.0349
G1 X95.484 Y84.476 E0.05072
G1 X95.837 Y84.142 E0.06607
G1 X96.234 Y83.784 E0.08296
G1 X96.579 Y83.488 E0.09733
G1 X97.003 Y83.142 E0.11462
G1 X97.372 Y82.856 E0.12937
G1 X97.8 Y82.541 E0.14616
G1 X98.204 Y82.258 E0.16175
G1 X98.618 Y81.981 E0.17749
G1 X99.018 Y81.727 E0.19246
G1 X99.487 Y81.445 E0.20975
G1 X99.903 Y81.209 E0.22486
G1 X100.373 Y80.958 E0.2417
G1 X100.779 Y80.753 E0.25607
G1 X101.255 Y80.526 E0.27273
G1 X101.719 Y80.319 E0.28879
G1 X102.183 Y80.125 E0.30468
G1 X102.601 Y79.961 E0.31886
G1 X103.14 Y79.765 E0.33699
G1 X103.611 Y79.608 E0.35267
G1 X104.116 Y79.454 E0.36936
G1 X104.579 Y79.324 E0.38455
G1 X105.08 Y79.196 E0.40089
G1 X105.535 Y79.091 E0.41564
G1 X106.053 Y78.984 E0.43236
G1 X106.507 Y78.902 E0.44693
G1 X107.035 Y78.82 E0.46382
G1 X107.524 Y78.756 E0.4794
G1 X108.045 Y78.7 E0.49596
G1 X108.529 Y78.66 E0.5113
G1 X109.033 Y78.63 E0.52726
G1 X109.498 Y78.613 E0.54196
G1 X110.066 Y78.607 E0.55991
G1 X110.529 Y78.614 E0.57454
G1 X111.073 Y78.636 E0.59174
G1 X111.583 Y78.669 E0.60789
G1 X112.072 Y78.712 E0.6234
G1 X112.519 Y78.761 E0.63761
G1 X113.061 Y78.834 E0.65489
G1 X113.535 Y78.91 E0.67006
G1 X114.045 Y79.004 E0.68644
G1 X114.509 Y79.101 E0.70142
G1 X115.041 Y79.226 E0.71869
G1 X115.519 Y79.351 E0.7343
G1 X116.012 Y79.492 E0.7505
G1 X116.464 Y79.633 E0.76546
G1 X116.987 Y79.811 E0.78292
G1 X117.419 Y79.97 E0.79746
G1 X117.895 Y80.158 E0.81363
G1 X118.355 Y80.352 E0.82941
G1 X118.842 Y80.571 E0.84628
G1 X119.246 Y80.765 E0.86044
G1 X119.703 Y80.998 E0.87665
G1 X120.152 Y81.24 E0.89277
G1 X120.657 Y81.53 E0.91117
G1 X121.041 Y81.764 E0.92537
G1 X121.439 Y82.018 E0.94029
G1 X121.848 Y82.292 E0.95585
G1 X122.308 Y82.617 E0.97364
G1 X122.695 Y82.906 E0.98891
G1 X123.112 Y83.234 E1.00567
G1 X123.46 Y83.521 E1.01992
G1 X123.874 Y83.88 E1.03724
G1 X124.238 Y84.212 E1.0528
G1 X124.592 Y84.549 E1.06825
G1 X124.932 Y84.888 E1.08342
G1 X125.307 Y85.281 E1.10058
G1 X125.615 Y85.62 E1.11505
G1 X125.966 Y86.026 E1.13201
G1 X126.278 Y86.405 E1.14752
G1 X126.593 Y86.807 E1.16366
G1 X126.878 Y87.188 E1.17869
G1 X127.183 Y87.617 E1.19533
G1 X127.473 Y88.046 E1.21169
G1 X127.765 Y88.5 E1.22874
G1 X128.26 Y89.319 E1.25898
G1 X136.927 Y103.958 E1.79652
G1 X137.176 Y104.388 E1.81222
G1 X137.31 Y104.626 E1.82085
G1 X137.764 Y105.457 E1.85077
G1 X137.926 Y105.765 E1.86177
G1 X138.181 Y106.269 E1.87961
G1 X138.342 Y106.6 E1.89124
G1 X138.657 Y107.278 E1.91487
G1 X138.814 Y107.632 E1.9271
G1 X139.1 Y108.309 E1.95032
G1 X139.236 Y108.648 E1.96186
G1 X139.446 Y109.195 E1.98038
G1 X139.571 Y109.537 E1.99188
G1 X139.784 Y110.152 E2.01245
G1 X139.9 Y110.504 E2.02416
G1 X140.125 Y111.232 E2.04824
G1 X140.23 Y111.594 E2.06014
G1 X140.379 Y112.142 E2.07809
G1 X140.466 Y112.486 E2.0893
G1 X140.609 Y113.088 E2.10885
G1 X140.689 Y113.449 E2.12053
G1 X140.867 Y114.329 E2.1489
G1 X140.934 Y114.694 E2.16063
G1 X141.007 Y115.13 E2.1746
G1 X141.063 Y115.501 E2.18645
G1 X141.16 Y116.233 E2.20978
G1 X141.202 Y116.6 E2.22146
G1 X141.273 Y117.321 E2.24435
G1 X141.302 Y117.68 E2.25573
G1 X141.337 Y118.214 E2.27264
G1 X141.356 Y118.591 E2.28456
G1 X141.392 Y119.748 E2.32114
G1 X141.397 Y120.003 E2.3292
G1 X141.4 Y120.384 E2.34124
G1 X141.399 Y127.915 E2.57919
G1 X141.389 Y128.642 E2.60217
G1 X141.365 Y129.228 E2.6207
G1 X141.356 Y129.362 E2.62494
G1 X141.299 Y129.967 E2.64414
G1 X141.27 Y130.203 E2.65166
G1 X141.116 Y131.128 E2.68129
G1 X140.888 Y132.022 E2.71044
G1 X140.795 Y132.332 E2.72066
G1 X140.345 Y133.561 E2.76202
G1 X140.261 Y133.754 E2.76867
G1 X139.632 Y134.982 E2.81227
G1 X139.512 Y135.184 E2.81969
G1 X138.999 Y135.969 E2.84932
G1 X138.399 Y136.734 E2.88004
G1 X138.137 Y137.039 E2.89274
G1 X137.496 Y137.723 E2.92236
G1 X136.799 Y138.351 E2.95201
G1 X136.421 Y138.65 E2.96724
G1 X136.115 Y138.881 E2.97935
G1 X135.343 Y139.414 E3.00899
G1 X134.214 Y140.034 E3.04969
G1 X133.798 Y140.232 E3.06425
G1 X132.935 Y140.599 E3.09388
G1 X131.609 Y141.003 E3.13768
G1 X131.512 Y141.026 E3.14083
G1 X131.07 Y141.121 E3.15511
G1 X130.797 Y141.174 E3.1639
G1 X129.625 Y141.337 E3.20129
G1 X129.542 Y141.344 E3.20392
G1 X128.984 Y141.377 E3.22158
G1 X128.624 Y141.389 E3.23296
G1 X128.041 Y141.398 E3.25139
G1 X92.206 Y141.399 E4.38367
G1 X91.35 Y141.388 E4.41072
G1 X90.758 Y141.363 E4.42944
G1 X90.641 Y141.355 E4.43315
G1 X90.079 Y141.302 E4.45098
G1 X89.821 Y141.271 E4.45919
G1 X88.895 Y141.12 E4.48884
G1 X87.917 Y140.869 E4.52074
G1 X87.531 Y140.751 E4.5335
G1 X86.647 Y140.439 E4.56312
G1 X85.627 Y139.968 E4.59862
G1 X85.511 Y139.907 E4.60276
G1 X85.017 Y139.631 E4.62064
G1 X84.835 Y139.523 E4.62732
G1 X84.05 Y139.01 E4.65696
G1 X83.284 Y138.41 E4.6877
G1 X82.945 Y138.119 E4.70182
G1 X82.26 Y137.478 E4.73146
G1 X81.632 Y136.781 E4.7611
G1 X81.31 Y136.372 E4.77755
G1 X81.1 Y136.092 E4.78861
G1 X80.57 Y135.318 E4.81825
G1 X79.969 Y134.222 E4.85775
G1 X79.768 Y133.8 E4.87251
G1 X79.401 Y132.937 E4.90215
G1 X79.109 Y132.046 E4.93177
G1 X78.987 Y131.573 E4.94721
G1 X78.962 Y131.466 E4.95068
G1 X78.877 Y131.066 E4.9636
G1 X78.825 Y130.799 E4.97219
G1 X78.659 Y129.599 E5.01047
G1 X78.652 Y129.514 E5.01317
G1 X78.621 Y128.983 E5.02997
G1 X78.609 Y128.628 E5.0412
G1 X78.603 Y128.355 E5.04983
G1 X78.6 Y127.92 E5.06357
G1 X78.602 Y120.006 E5.31363
G1 X78.608 Y119.648 E5.32494
G1 X78.644 Y118.553 E5.35956
G1 X78.661 Y118.205 E5.37057
G1 X78.688 Y117.787 E5.38381
G1 X78.718 Y117.421 E5.39541
G1 X78.803 Y116.555 E5.4229
G1 X78.847 Y116.173 E5.43505
G1 X78.932 Y115.537 E5.45533
G1 X78.986 Y115.18 E5.46674
G1 X79.083 Y114.6 E5.48532
G1 X79.149 Y114.242 E5.49682
G1 X79.288 Y113.552 E5.51906
G1 X79.368 Y113.185 E5.53093
G1 X79.535 Y112.481 E5.55379
G1 X79.624 Y112.132 E5.56517
G1 X79.778 Y111.566 E5.5837
G1 X79.885 Y111.198 E5.59581
G1 X80.101 Y110.501 E5.61887
G1 X80.214 Y110.156 E5.63034
G1 X80.426 Y109.544 E5.65081
G1 X80.548 Y109.21 E5.66204
G1 X80.756 Y108.667 E5.68041
G1 X80.898 Y108.315 E5.69241
G1 X81.212 Y107.573 E5.71786
G1 X81.362 Y107.234 E5.72958
G1 X81.629 Y106.658 E5.74964
G1 X81.792 Y106.321 E5.76147
G1 X82.067 Y105.777 E5.78073
G1 X82.225 Y105.477 E5.79144
G1 X82.693 Y104.618 E5.82235
G1 X82.859 Y104.324 E5.83302
G1 X83.119 Y103.879 E5.8493
G1 X91.767 Y89.273 E6.38564
G1 X92.165 Y88.618 E6.40985
G1 X92.304 Y88.395 E6.41816
G1 X92.552 Y88.008 E6.43268
G1 X92.872 Y87.536 E6.4507
G1 X93.15 Y87.148 E6.46578
G1 X93.472 Y86.722 E6.48265
G1 X93.774 Y86.341 E6.49802
G1 X93.854 Y86.244 E6.50199
G0 F1350 X94.081 Y85.971
G0 X94.373 Y85.634
G0 F7500 X94.675 Y85.896
G1 F1500 X95.058 Y85.476 E6.51995
G1 X95.416 Y85.105 E6.53624
G1 X95.759 Y84.766 E6.55148
G1 X96.112 Y84.432 E6.56683
G1 X96.495 Y84.087 E6.58312
G1 X96.84 Y83.791 E6.59748
G1 X97.248 Y83.458 E6.61412
G1 X97.617 Y83.172 E6.62887
G1 X98.029 Y82.868 E6.64505
G1 X98.433 Y82.585 E6.66064
G1 X98.833 Y82.319 E6.67582
G1 X99.233 Y82.065 E6.69079
G1 X99.685 Y81.793 E6.70746
G1 X100.101 Y81.557 E6.72257
G1 X100.553 Y81.315 E6.73877
G1 X100.959 Y81.11 E6.75314
G1 X101.418 Y80.892 E6.7692
G1 X101.882 Y80.685 E6.78525
G1 X102.329 Y80.497 E6.80057
G1 X102.747 Y80.333 E6.81476
G1 X103.267 Y80.145 E6.83223
G1 X103.738 Y79.988 E6.84792
G1 X104.225 Y79.839 E6.86401
G1 X104.688 Y79.709 E6.87921
G1 X105.169 Y79.585 E6.8949
G1 X105.624 Y79.48 E6.90966
G1 X106.124 Y79.378 E6.92578
G1 X106.578 Y79.296 E6.94036
G1 X107.086 Y79.217 E6.9566
G1 X107.575 Y79.153 E6.97218
G1 X108.078 Y79.099 E6.98817
G1 X108.562 Y79.059 E7.00351
G1 X109.048 Y79.03 E7.0189
G1 X109.513 Y79.013 E7.0336
G1 X110.06 Y79.007 E7.05088
G1 X110.523 Y79.014 E7.06551
G1 X111.047 Y79.035 E7.08209
G1 X111.557 Y79.068 E7.09823
G1 X112.028 Y79.109 E7.11317
G1 X112.475 Y79.158 E7.12738
G1 X112.998 Y79.229 E7.14406
G1 X113.472 Y79.305 E7.15923
G1 X113.963 Y79.395 E7.175
G1 X114.427 Y79.492 E7.18998
G1 X114.94 Y79.613 E7.20663
G1 X115.418 Y79.738 E7.22224
G1 X115.893 Y79.874 E7.23785
G1 X116.345 Y80.015 E7.25281
G1 X116.849 Y80.186 E7.26963
G1 X117.281 Y80.345 E7.28418
G1 X117.739 Y80.526 E7.29974
G1 X118.199 Y80.72 E7.31551
G1 X118.668 Y80.932 E7.33177
G1 X119.072 Y81.126 E7.34593
G1 X119.513 Y81.35 E7.36156
G1 X119.962 Y81.592 E7.37768
G1 X120.449 Y81.871 E7.39541
G1 X120.833 Y82.105 E7.40962
G1 X121.217 Y82.351 E7.42403
G1 X121.626 Y82.625 E7.43959
G1 X122.068 Y82.938 E7.4567
G1 X122.455 Y83.227 E7.47196
G1 X122.857 Y83.542 E7.4881
G1 X123.205 Y83.829 E7.50235
G1 X123.604 Y84.175 E7.51904
G1 X123.968 Y84.507 E7.53461
G1 X124.309 Y84.833 E7.54951
G1 X124.649 Y85.172 E7.56468
G1 X125.01 Y85.55 E7.5812
G1 X125.318 Y85.889 E7.59567
G1 X125.657 Y86.28 E7.61202
G1 X125.969 Y86.659 E7.62753
G1 X126.273 Y87.047 E7.64311
G1 X126.558 Y87.428 E7.65814
G1 X126.852 Y87.841 E7.67416
G1 X127.142 Y88.27 E7.69052
G1 X127.423 Y88.708 E7.70696
G1 X127.916 Y89.523 E7.73706
G1 X136.581 Y104.158 E8.27446
G1 X136.83 Y104.588 E8.29016
G1 X136.959 Y104.818 E8.29849
G1 X137.413 Y105.649 E8.32841
G1 X137.569 Y105.946 E8.33901
G1 X137.824 Y106.45 E8.35686
G1 X137.979 Y106.769 E8.36807
G1 X138.294 Y107.447 E8.39169
G1 X138.445 Y107.788 E8.40347
G1 X138.731 Y108.465 E8.42669
G1 X138.863 Y108.791 E8.43781
G1 X139.073 Y109.338 E8.45632
G1 X139.193 Y109.668 E8.46741
G1 X139.406 Y110.283 E8.48798
G1 X139.517 Y110.622 E8.49925
G1 X139.742 Y111.35 E8.52333
G1 X139.844 Y111.699 E8.53482
G1 X139.993 Y112.247 E8.55276
G1 X140.077 Y112.578 E8.56355
G1 X140.22 Y113.18 E8.5831
G1 X140.297 Y113.528 E8.59436
G1 X140.475 Y114.408 E8.62273
G1 X140.539 Y114.76 E8.63403
G1 X140.612 Y115.196 E8.648
G1 X140.666 Y115.554 E8.65944
G1 X140.763 Y116.286 E8.68277
G1 X140.804 Y116.639 E8.694
G1 X140.875 Y117.36 E8.71689
G1 X140.903 Y117.706 E8.72786
G1 X140.938 Y118.24 E8.74477
G1 X140.956 Y118.603 E8.75626
G1 X140.992 Y119.76 E8.79283
G1 X140.997 Y120.007 E8.80064
G1 X141 Y120.388 E8.81268
G1 X140.999 Y127.91 E9.05035
G1 X140.989 Y128.637 E9.07332
G1 X140.966 Y129.201 E9.09116
G1 X140.957 Y129.335 E9.0954
G1 X140.902 Y129.918 E9.11391
G1 X140.873 Y130.154 E9.12142
G1 X140.721 Y131.062 E9.15051
G1 X140.505 Y131.907 E9.17807
G1 X140.412 Y132.217 E9.18829
G1 X139.978 Y133.401 E9.22814
G1 X139.894 Y133.594 E9.23479
G1 X139.288 Y134.778 E9.27681
G1 X139.168 Y134.98 E9.28424
G1 X138.664 Y135.75 E9.31332
G1 X138.096 Y136.473 E9.34237
G1 X137.834 Y136.778 E9.35507
G1 X137.204 Y137.45 E9.38418
G1 X136.18 Y138.331 E9.42686
G1 X135.874 Y138.562 E9.43897
G1 X135.115 Y139.084 E9.46808
G1 X134.043 Y139.673 E9.50673
G1 X133.627 Y139.871 E9.52129
G1 X132.779 Y140.23 E9.55038
G1 X131.517 Y140.614 E9.59206
G1 X131.42 Y140.637 E9.59521
G1 X130.994 Y140.729 E9.60898
G1 X130.721 Y140.782 E9.61777
G1 X129.592 Y140.939 E9.65379
G1 X129.509 Y140.946 E9.65642
G1 X128.971 Y140.977 E9.67345
G1 X128.611 Y140.989 E9.68483
G1 X128.036 Y140.998 E9.703
G1 X92.206 Y140.999 E10.83512
G1 X91.356 Y140.988 E10.86198
G1 X90.785 Y140.964 E10.88004
G1 X90.668 Y140.956 E10.88375
G1 X90.126 Y140.905 E10.90095
G1 X89.868 Y140.874 E10.90916
G1 X88.96 Y140.725 E10.93823
G1 X88.034 Y140.487 E10.96844
G1 X87.648 Y140.369 E10.9812
G1 X86.78 Y140.062 E11.01029
G1 X85.813 Y139.614 E11.04396
G1 X85.697 Y139.553 E11.0481
G1 X85.222 Y139.287 E11.0653
G1 X85.04 Y139.179 E11.07199
G1 X84.269 Y138.675 E11.1011
G1 X83.545 Y138.106 E11.13019
G1 X83.206 Y137.815 E11.14431
G1 X82.534 Y137.186 E11.17339
G1 X81.919 Y136.5 E11.2025
G1 X81.63 Y136.132 E11.21729
G1 X81.42 Y135.852 E11.22835
G1 X80.9 Y135.092 E11.25744
G1 X80.33 Y134.05 E11.29497
G1 X80.129 Y133.628 E11.30974
G1 X79.77 Y132.781 E11.33881
G1 X79.377 Y131.482 E11.38169
G1 X79.352 Y131.375 E11.38516
G1 X79.269 Y130.989 E11.39764
G1 X79.217 Y130.722 E11.40623
G1 X79.058 Y129.566 E11.4431
G1 X79.051 Y129.481 E11.4458
G1 X79.021 Y128.969 E11.462
G1 X79.009 Y128.614 E11.47323
G1 X79.003 Y128.351 E11.48154
G1 X79 Y127.92 E11.49516
G1 X79.002 Y120.006 E11.74522
G1 X79.008 Y119.661 E11.75612
G1 X79.044 Y118.566 E11.79074
G1 X79.06 Y118.231 E11.80133
G1 X79.087 Y117.813 E11.81457
G1 X79.116 Y117.461 E11.82573
G1 X79.201 Y116.595 E11.85322
G1 X79.243 Y116.226 E11.86496
G1 X79.328 Y115.59 E11.88523
G1 X79.38 Y115.246 E11.89623
G1 X79.477 Y114.666 E11.91481
G1 X79.541 Y114.321 E11.92589
G1 X79.68 Y113.631 E11.94813
G1 X79.757 Y113.277 E11.95958
G1 X79.924 Y112.573 E11.98244
G1 X80.01 Y112.237 E11.9934
G1 X80.164 Y111.671 E12.01194
G1 X80.267 Y111.316 E12.02362
G1 X80.483 Y110.619 E12.04667
G1 X80.592 Y110.287 E12.05771
G1 X80.804 Y109.675 E12.07818
G1 X80.921 Y109.353 E12.089
G1 X81.129 Y108.81 E12.10738
G1 X81.266 Y108.471 E12.11893
G1 X81.58 Y107.729 E12.14439
G1 X81.725 Y107.402 E12.15569
G1 X81.992 Y106.826 E12.17575
G1 X82.149 Y106.502 E12.18713
G1 X82.424 Y105.958 E12.20639
G1 X82.576 Y105.669 E12.2167
G1 X83.044 Y104.81 E12.24761
G1 X83.204 Y104.526 E12.25791
G1 X83.464 Y104.083 E12.27414
G1 X92.109 Y89.481 E12.81032
G1 X92.507 Y88.826 E12.83454
G1 X92.641 Y88.611 E12.84254
G1 X92.889 Y88.224 E12.85707
G1 X93.197 Y87.769 E12.87443
G1 X93.475 Y87.381 E12.88951
G1 X93.785 Y86.971 E12.90575
G1 X94.087 Y86.59 E12.92111
G1 X94.157 Y86.506 E12.92457
G0 F1350 X94.383 Y86.233
G0 X94.675 Y85.896
G0 F7500 X94.977 Y86.158
G1 F1500 X95.346 Y85.754 E12.94186
G1 X95.704 Y85.383 E12.95815
G1 X96.034 Y85.057 E12.9728
G1 X96.387 Y84.723 E12.98816
G1 X96.755 Y84.391 E13.00382
G1 X97.1 Y84.095 E13.01818
G1 X97.493 Y83.774 E13.03421
G1 X97.862 Y83.488 E13.04897
G1 X98.259 Y83.196 E13.06454
G1 X98.663 Y82.913 E13.08012
G1 X99.047 Y82.656 E13.09472
G1 X99.447 Y82.402 E13.1097
G1 X99.882 Y82.141 E13.12572
G1 X100.298 Y81.905 E13.14084
G1 X100.734 Y81.672 E13.15646
G1 X101.14 Y81.467 E13.17083
G1 X101.581 Y81.257 E13.18626
G1 X102.045 Y81.05 E13.20232
G1 X102.476 Y80.87 E13.21707
G1 X102.894 Y80.706 E13.23126
G1 X103.393 Y80.524 E13.24804
G1 X103.864 Y80.367 E13.26373
G1 X104.333 Y80.224 E13.27922
G1 X104.796 Y80.094 E13.29442
G1 X105.259 Y79.975 E13.30952
G1 X105.714 Y79.87 E13.32428
G1 X106.195 Y79.771 E13.3398
G1 X106.649 Y79.689 E13.35437
G1 X107.138 Y79.613 E13.37001
G1 X107.627 Y79.549 E13.38559
G1 X108.111 Y79.498 E13.40097
G1 X108.595 Y79.458 E13.41631
G1 X109.062 Y79.43 E13.4311
G1 X109.527 Y79.413 E13.4458
G1 X110.054 Y79.407 E13.46245
G1 X110.517 Y79.414 E13.47708
G1 X111.022 Y79.434 E13.49305
G1 X111.532 Y79.467 E13.5092
G1 X111.984 Y79.507 E13.52354
G1 X112.431 Y79.556 E13.53775
G1 X112.935 Y79.624 E13.55382
G1 X113.409 Y79.7 E13.56898
G1 X113.881 Y79.787 E13.58415
G1 X114.345 Y79.884 E13.59913
G1 X114.839 Y80 E13.61516
G1 X115.317 Y80.125 E13.63077
G1 X115.773 Y80.256 E13.64576
G1 X116.225 Y80.397 E13.66072
G1 X116.711 Y80.562 E13.67694
G1 X117.143 Y80.721 E13.69149
G1 X117.584 Y80.895 E13.70647
G1 X118.044 Y81.089 E13.72224
G1 X118.495 Y81.292 E13.73787
G1 X118.899 Y81.486 E13.75203
G1 X119.323 Y81.702 E13.76706
G1 X119.772 Y81.944 E13.78318
G1 X120.241 Y82.213 E13.80026
G1 X120.625 Y82.447 E13.81447
G1 X120.994 Y82.683 E13.82831
G1 X121.403 Y82.957 E13.84387
G1 X121.829 Y83.258 E13.86035
G1 X122.216 Y83.547 E13.87561
G1 X122.603 Y83.851 E13.89116
G1 X122.951 Y84.138 E13.90541
G1 X123.335 Y84.471 E13.92147
G1 X123.699 Y84.803 E13.93704
G1 X124.027 Y85.116 E13.95137
G1 X124.367 Y85.455 E13.96654
G1 X124.714 Y85.819 E13.98243
G1 X125.022 Y86.158 E13.9969
